!!!COM: Bach, Johann Sebastian
!!!OPR: Six Concerts Avec plusieurs ... le prince regnant d'Anhalt-Coethen
!!!OTL: Brandenburgische Konzerte G
!!!XEN: Brandenburg Concerto No. 3 in G major.
!!!OMV: Movement 2.
!!!SCT: BWV 1048
!!!YEC: Copyright 1994, Center for Computer Assisted Research in the Humanities
!!!YEM: Rights to all derivative electronic formats reserved.
!!!YEM: Refer to licensing agreement for further details.
!! For the following instrumentation: Violino I, II & III, Viola I, II & III,
!!    Violoncello I, II & III, Violone, Cembalo.
!! Allegro.
**kern	**kern	**kern	**kern	**kern	**kern	**kern	**kern	**kern	**kern
*IGcont	*ICstr	*ICstr	*ICstr	*ICstr	*ICstr	*ICstr	*ICstr	*ICstr	*ICstr
*Icemba	*Icello	*Icello	*Icello	*Iviola	*Iviola	*Iviola	*Ivioln	*Ivioln	*Ivioln
*Icbass	*	*	*	*	*	*	*	*	*
!Contin	!cello3	!cello2	!cello1	!viola3	!viola2	!viola1	!v'lin3	!v'lin2	!v'lin1
*>[A,B,B]	*>[A,B,B]	*>[A,B,B]	*>[A,B,B]	*>[A,B,B]	*>[A,B,B]	*>[A,B,B]	*>[A,B,B]	*>[A,B,B]	*>[A,B,B]
*>A	*>A	*>A	*>A	*>A	*>A	*>A	*>A	*>A	*>A
*k[f#]	*k[f#]	*k[f#]	*k[f#]	*k[f#]	*k[f#]	*k[f#]	*k[f#]	*k[f#]	*k[f#]
*G:	*G:	*G:	*G:	*G:	*G:	*G:	*G:	*G:	*G:
*M12/8	*M12/8	*M12/8	*M12/8	*M12/8	*M12/8	*M12/8	*M12/8	*M12/8	*M12/8
*MM66	*MM66	*MM66	*MM66	*MM66	*MM66	*MM66	*MM66	*MM66	*MM66
*clefF4	*clefF4	*clefF4	*clefF4	*clefC3	*clefC3	*clefC3	*clefG2	*clefG2	*clefG2
=1	=1	=1	=1	=1	=1	=1	=1	=1	=1
1.r	1.r	1.r	1.r	8g\L	8g\L	8g\L	1.r	2.r	16g/LL
.	.	.	.	.	.	.	.	.	16f#/
.	.	.	.	8b\	8b\	8b\	.	.	16g/
.	.	.	.	.	.	.	.	.	16a/
.	.	.	.	8dd\J	8dd\J	8dd\J	.	.	16b/
.	.	.	.	.	.	.	.	.	16cc/JJ
.	.	.	.	8f#\L	8f#\L	8f#\L	.	.	16dd\LL
.	.	.	.	.	.	.	.	.	16ee\
.	.	.	.	8a\	8a\	8a\	.	.	16dd\
.	.	.	.	.	.	.	.	.	16cc\
.	.	.	.	8dd\J	8dd\J	8dd\J	.	.	16b\
.	.	.	.	.	.	.	.	.	16a\JJ
.	.	.	.	8g\L	8g\L	8g\L	.	16g/LL	8b\L
.	.	.	.	.	.	.	.	16f#/	.
.	.	.	.	8b\	8b\	8b\	.	16g/	8dd\
.	.	.	.	.	.	.	.	16a/	.
.	.	.	.	8dd\J	8dd\J	8dd\J	.	16b/	8gg\J
.	.	.	.	.	.	.	.	16cc/JJ	.
.	.	.	.	8d\L	8d\L	8d\L	.	16dd\LL	16ff#\LL
.	.	.	.	.	.	.	.	16ee\	16gg\
.	.	.	.	8a\	8a\	8a\	.	16dd\	16ff#\
.	.	.	.	.	.	.	.	16cc\	16ee\
.	.	.	.	8dd\J	8dd\J	8dd\J	.	16b\	16dd\
.	.	.	.	.	.	.	.	16a\JJ	16cc\JJ
=2	=2	=2	=2	=2	=2	=2	=2	=2	=2
2.r	2.r	2.r	2.r	16g\LL	16g\LL	16g\LL	16g/LL	8b\L	8b\L
.	.	.	.	16f#\	16f#\	16f#\	16f#/	.	.
.	.	.	.	16g\	16g\	16g\	16g/	8dd\	8g\
.	.	.	.	16a\	16a\	16a\	16a/	.	.
.	.	.	.	16b\	16b\	16b\	16b/	8gg\J	8dd\J
.	.	.	.	16cc\JJ	16cc\JJ	16cc\JJ	16cc/JJ	.	.
.	.	.	.	16dd\LL	16dd\LL	16dd\LL	16dd\LL	16ff#\LL	8dd\L
.	.	.	.	16ee\	16ee\	16ee\	16ee\	16gg\	.
.	.	.	.	16dd\	16dd\	16dd\	16dd\	16ff#\	8dd\
.	.	.	.	16cc\	16cc\	16cc\	16cc\	16ee\	.
.	.	.	.	16b\	16b\	16b\	16b\	16dd\	8dd\J
.	.	.	.	16a\JJ	16a\JJ	16a\JJ	16a\JJ	16cc\JJ	.
16G\LL	16G\LL	16G\LL	16G\LL	8g\L	8g\L	8g\L	8b\L	8b\L	8dd\L
16F#\	16F#\	16F#\	16F#\	.	.	.	.	.	.
16G\	16G\	16G\	16G\	8b\	8b\	8b\	8dd\	8g\	8dd\
16A\	16A\	16A\	16A\	.	.	.	.	.	.
16B\	16B\	16B\	16B\	8d\J	8d\J	8d\J	8gg\J	8dd\J	8dd\J
16c\JJ	16c\JJ	16c\JJ	16c\JJ	.	.	.	.	.	.
16d\LL	16d\LL	16d\LL	16d\LL	8a\L	8a\L	8a\L	16ff#\LL	8dd\L	8dd\L
16e\	16e\	16e\	16e\	.	.	.	16gg\	.	.
16d\	16d\	16d\	16d\	8cc\	8cc\	8cc\	16ff#\	8dd\	8dd\
16c\	16c\	16c\	16c\	.	.	.	16ee\	.	.
16B\	16B\	16B\	16B\	8d\J	8d\J	8d\J	16dd\	8dd\J	8dd\J
16A\JJ	16A\JJ	16A\JJ	16A\JJ	.	.	.	16cc\JJ	.	.
=3	=3	=3	=3	=3	=3	=3	=3	=3	=3
16G\LL	16G\LL	16G\LL	16G\LL	8b\L	8b\L	8b\L	16dd\LL	8dd\L	16bb\LL
16F#\	16F#\	16F#\	16F#\	.	.	.	16ee\	.	16ccc\
16G\	16G\	16G\	16G\	8b\	8b\	8b\	16dd\	8gg\	16bb\
16A\	16A\	16A\	16A\	.	.	.	16cc\	.	16aa\
16B\	16B\	16B\	16B\	8b\J	8b\J	8b\J	16b\	8dd\J	16gg\
16G\JJ	16G\JJ	16G\JJ	16G\JJ	.	.	.	16a\JJ	.	16ff#\JJ
16c\LL	16c\LL	16c\LL	16c\LL	8b\L	8b\L	8b\L	8g/L	16ee\LL	16ee\LL
16d\	16d\	16d\	16d\	.	.	.	.	16ff#\	16dd\
16c\	16c\	16c\	16c\	8b\	8b\	8b\	8cc/	16ee\	16ee\
16B\	16B\	16B\	16B\	.	.	.	.	16dd\	16ff#\
16A\	16A\	16A\	16A\	8b\J	8b\J	8b\J	8g/J	16cc#\	16gg\
16G\JJ	16G\JJ	16G\JJ	16G\JJ	.	.	.	.	16b\JJ	16ee\JJ
16F#\LL	16F#\LL	16F#\LL	16F#\LL	8a\L	8a\L	8a\L	16a/LL	8cc#\L	16aa\LL
16E\	16E\	16E\	16E\	.	.	.	16dd/	.	16bb\
16F#\	16F#\	16F#\	16F#\	8a\	8a\	8a\	16cc#/	8ff#\	16aa\
16G\	16G\	16G\	16G\	.	.	.	16b/	.	16gg\
16A\	16A\	16A\	16A\	8a\J	8a\J	8a\J	16a/	8cc#\J	16ff#\
16F#\JJ	16F#\JJ	16F#\JJ	16F#\JJ	.	.	.	16g/JJ	.	16ee\JJ
16B\LL	16B\LL	16B\LL	16B\LL	8a\L	8a\L	8a\L	8f#/L	16dd\LL	16dd\LL
16c#\	16c#\	16c#\	16c#\	.	.	.	.	16ee\	16cc#\
16B\	16B\	16B\	16B\	8a\	8a\	8a\	8b/	16dd\	16dd\
16A\	16A\	16A\	16A\	.	.	.	.	16cc#\	16ee\
16G\	16G\	16G\	16G\	8a\J	8a\J	8a\J	8f#/J	16b\	16ff#\
16F#\JJ	16F#\JJ	16F#\JJ	16F#\JJ	.	.	.	.	16a\JJ	16dd\JJ
=4	=4	=4	=4	=4	=4	=4	=4	=4	=4
16E\LL	16E\LL	16E\LL	16E\LL	8g\L	8g\L	8g\L	16g/LL	8b\L	16gg\LL
16D\	16D\	16D\	16D\	.	.	.	16cc/	.	16aa\
16E\	16E\	16E\	16E\	8g\	8g\	8g\	16b/	8ee\	16gg\
16F#\	16F#\	16F#\	16F#\	.	.	.	16a/	.	16ff#\
16G\	16G\	16G\	16G\	8g\J	8g\J	8g\J	16g/	8b\J	16ee\
16E\JJ	16E\JJ	16E\JJ	16E\JJ	.	.	.	16f#/JJ	.	16dd\JJ
16A\LL	16A\LL	16A\LL	16A\LL	8g\L	8g\L	8g\L	8e/L	8cc#\L	16cc#\LL
16B\	16B\	16B\	16B\	.	.	.	.	.	16b\
16A\	16A\	16A\	16A\	8g\	8g\	8g\	8a/	8ee\	16cc#\
16G\	16G\	16G\	16G\	.	.	.	.	.	16dd\
16F#\	16F#\	16F#\	16F#\	8g\J	8g\J	8g\J	8cc#/J	8aa\J	16ee\
16E\JJ	16E\JJ	16E\JJ	16E\JJ	.	.	.	.	.	16cc#\JJ
4D\	4D\	4D\	4D\	8f#\L	8f#\L	16f#\LL	8dd\L	8dd\L	8dd\L
.	.	.	.	.	.	16e\	.	.	.
.	.	.	.	8a\	8a\	16d\	8ff#\	8ff#\	8ff#\
.	.	.	.	.	.	16e\	.	.	.
8r	8r	8r	8r	8dd\J	8dd\J	16f#\	8aa\J	8aa\J	8aa\J
.	.	.	.	.	.	16g\JJ	.	.	.
4AA/	4AA/	4AA/	4AA/	8e\L	8e\L	16a\LL	8cc#\L	8cc#\L	8cc#\L
.	.	.	.	.	.	16b\	.	.	.
.	.	.	.	8g\	8g\	16a\	8ee\	8ee\	8ee\
.	.	.	.	.	.	16g\	.	.	.
8r	8r	8r	8r	8cc#\J	8cc#\J	16f#\	8aa\J	8aa\J	8aa\J
.	.	.	.	.	.	16e\JJ	.	.	.
=5	=5	=5	=5	=5	=5	=5	=5	=5	=5
4DD/	4DD/	4DD/	4DD/	16d\LL	16d\LL	8f#\L	8dd\L	8dd\L	8dd\L
.	.	.	.	16c#\	16c#\	.	.	.	.
.	.	.	.	16d\	16d\	8a\	8ff#\	8ff#\	8ff#\
.	.	.	.	16e\	16e\	.	.	.	.
8r	8r	8r	8r	16f#\	16f#\	8dd\J	8aa\J	8aa\J	8aa\J
.	.	.	.	16g\JJ	16g\JJ	.	.	.	.
4AA/	4AA/	4AA/	4AA/	16a\LL	16a\LL	16cc#\LL	8a\L	8a\L	8a\L
.	.	.	.	16b\	16b\	16dd\	.	.	.
.	.	.	.	16a\	16a\	16cc#\	8ee\	8ee\	8ee\
.	.	.	.	16g\	16g\	16b\	.	.	.
8r	8r	8r	8r	16f#\	16f#\	16a\	8aa\J	8aa\J	8aa\J
.	.	.	.	16e\JJ	16e\JJ	16g\JJ	.	.	.
8D\L	8D\L	8D\L	8D\L	8f#\L	8f#\L	8f#\L	16dd\LL	16dd\LL	16dd\LL
.	.	.	.	.	.	.	16cc#\	16cc#\	16cc#\
8F#\	8F#\	8F#\	8F#\	8a\	8a\	8d\	16dd\	16dd\	16dd\
.	.	.	.	.	.	.	16ee\	16ee\	16ee\
8A\J	8A\J	8A\J	8A\J	8dd\J	8dd\J	8a\J	16ff#\	16ff#\	16ff#\
.	.	.	.	.	.	.	16gg\JJ	16gg\JJ	16gg\JJ
8AA\L	8AA\L	8AA\L	8AA\L	16cc#\LL	16cc#\LL	8a\L	16aa\LL	16aa\LL	16aa\LL
.	.	.	.	16dd\	16dd\	.	16bb\	16bb\	16bb\
8E\	8E\	8E\	8E\	16cc#\	16cc#\	8a\	16aa\	16aa\	16aa\
.	.	.	.	16b\	16b\	.	16gg\	16gg\	16gg\
8A\J	8A\J	8A\J	8A\J	16a\	16a\	8a\J	16ff#\	16ff#\	16ff#\
.	.	.	.	16g\JJ	16g\JJ	.	16ee\JJ	16ee\JJ	16ee\JJ
=6	=6	=6	=6	=6	=6	=6	=6	=6	=6
16D\LL	16D\LL	16D\LL	16D\LL	8f#\L	8f#\L	8a\L	8dd\L	8dd\L	8dd\L
16C#\	16C#\	16C#\	16C#\	.	.	.	.	.	.
16D\	16D\	16D\	16D\	8a\	8d\	8a\	8ff#\	8ff#\	8ff#\
16E\	16E\	16E\	16E\	.	.	.	.	.	.
16F#\	16F#\	16F#\	16F#\	8d\J	8a\J	8a\J	8a\J	8a\J	8a\J
16G\JJ	16G\JJ	16G\JJ	16G\JJ	.	.	.	.	.	.
16A\LL	16A\LL	16A\LL	16A\LL	16c#/LL	8a\L	8a\L	8ee\L	8ee\L	8ee\L
16B\	16B\	16B\	16B\	16d/	.	.	.	.	.
16A\	16A\	16A\	16A\	16c#/	8a\	8a\	8gg\	8gg\	8gg\
16G\	16G\	16G\	16G\	16B/	.	.	.	.	.
16F#\	16F#\	16F#\	16F#\	16A/	8a\J	8a\J	8a\J	8a\J	8a\J
16E\JJ	16E\JJ	16E\JJ	16E\JJ	16G/JJ	.	.	.	.	.
16D\LL	16D\LL	16D\LL	16D\LL	8A\L	16a\LL	8a\L	8ff#\L	8ff#\L	8ff#\L
16C#\	16C#\	16C#\	16C#\	.	16g\	.	.	.	.
16D\	16D\	16D\	16D\	16a\LL	16f#\	8dd\	8ff#\	8ff#\	8ff#\
16E\	16E\	16E\	16E\	16g\	16e\	.	.	.	.
16F#\	16F#\	16F#\	16F#\	16f#\	16d\	8a\J	8ff#\J	8ff#\J	8ff#\J
16D\JJ	16D\JJ	16D\JJ	16D\JJ	16e\JJ	16c#\JJ	.	.	.	.
16G\LL	16G\LL	16G\LL	16G\LL	8d\L	16B/LL	16b\LL	8ff#\L	8ff#\L	8ff#\L
16A\	16A\	16A\	16A\	.	16A/	16cc#\	.	.	.
16G\	16G\	16G\	16G\	8g\	16B/	16b\	8ff#\	8ff#\	8ff#\
16F#\	16F#\	16F#\	16F#\	.	16c#/	16a\	.	.	.
16E\	16E\	16E\	16E\	8d\J	16d/	16g#\	8ff#\J	8ff#\J	8ff#\J
16D\JJ	16D\JJ	16D\JJ	16D\JJ	.	16B/JJ	16f#\JJ	.	.	.
=7	=7	=7	=7	=7	=7	=7	=7	=7	=7
16C#/LL	16C#/LL	16C#/LL	16C#/LL	16e\LL	16e\LL	8g#\L	8ee\L	8ee\L	8ee\L
16BB/	16BB/	16BB/	16BB/	16a\	16f#\	.	.	.	.
16C#/	16C#/	16C#/	16C#/	16g\	16e\	8cc#\	8ee\	8ee\	8ee\
16D/	16D/	16D/	16D/	16f#\	16d\	.	.	.	.
16E/	16E/	16E/	16E/	16e\	16c#\	8g#\J	8ee\J	8ee\J	8ee\J
16C#/JJ	16C#/JJ	16C#/JJ	16C#/JJ	16d\JJ	16B\JJ	.	.	.	.
16F#\LL	16F#\LL	16F#\LL	16F#\LL	8c#\L	16A/LL	16a\LL	8ee\L	8ee\L	8ee\L
16G\	16G\	16G\	16G\	.	16G#/	16b\	.	.	.
16F#\	16F#\	16F#\	16F#\	8f#\	16A/	16a\	8ee\	8ee\	8ee\
16E\	16E\	16E\	16E\	.	16B/	16g#\	.	.	.
16D\	16D\	16D\	16D\	8c#\J	16c#/	16f#\	8ee\J	8ee\J	8ee\J
16C#\JJ	16C#\JJ	16C#\JJ	16C#\JJ	.	16A/JJ	16e\JJ	.	.	.
16BB/LL	16BB/LL	16BB/LL	16BB/LL	16d\LL	16d\LL	8f#\L	8dd\L	8dd\L	8dd\L
16AA/	16AA/	16AA/	16AA/	16g\	16e\	.	.	.	.
16BB/	16BB/	16BB/	16BB/	16f#\	16d\	8b\	8dd\	8dd\	8dd\
16C#/	16C#/	16C#/	16C#/	16e\	16c#\	.	.	.	.
16D/	16D/	16D/	16D/	16d\	16B\	8f#\J	8dd\J	8dd\J	8dd\J
16BB/JJ	16BB/JJ	16BB/JJ	16BB/JJ	16c#\JJ	16A\JJ	.	.	.	.
16E\LL	16E\LL	16E\LL	16E\LL	8B\L	16G#/LL	8g#\L	8dd\L	8dd\L	8dd\L
16F#\	16F#\	16F#\	16F#\	.	16F#/	.	.	.	.
16E\	16E\	16E\	16E\	8e\	16G#/	8b\	8dd\	8dd\	8dd\
16D\	16D\	16D\	16D\	.	16A/	.	.	.	.
16C#\	16C#\	16C#\	16C#\	8g#\J	16B/	8e\J	8dd\J	8dd\J	8dd\J
16BB\JJ	16BB\JJ	16BB\JJ	16BB\JJ	.	16G#/JJ	.	.	.	.
=8	=8	=8	=8	=8	=8	=8	=8	=8	=8
8AA/L	8AA/L	8AA/L	8AA/L	4a\	8e\L	8a\L	4cc#\	8cc#\L	16cc#\LL
.	.	.	.	.	.	.	.	.	16ee\
8AA/	8AA/	8AA/	8AA/	.	8c#\	8e\	.	8ee\	16a\
.	.	.	.	.	.	.	.	.	16ee\
8AA/J	8AA/J	8AA/J	8AA/J	8e\	8A\J	8c#\J	8ee\	8aa\J	16cc#\
.	.	.	.	.	.	.	.	.	16ee\JJ
8AA/L	8AA/L	8AA/L	8AA/L	4a\	8f#\L	8a\L	4dd\	8dd\L	16dd\LL
.	.	.	.	.	.	.	.	.	16ff#\
8AA/	8AA/	8AA/	8AA/	.	8d\	8f#\	.	8ff#\	16a\
.	.	.	.	.	.	.	.	.	16ff#\
8AA/J	8AA/J	8AA/J	8AA/J	8f#\	8A\J	8d\J	8ff#\	8aa\J	16dd\
.	.	.	.	.	.	.	.	.	16ff#\JJ
8AA/L	8AA/L	8AA/L	8AA/L	4a\	8e\L	8g\L	4ee\	16cc#\LL	16ee\LL
.	.	.	.	.	.	.	.	16ee\	16gg\
8AA/	8AA/	8AA/	8AA/	.	8c#\	8e\	.	16a\	16a\
.	.	.	.	.	.	.	.	16ee\	16gg\
8AA/J	8AA/J	8AA/J	8AA/J	8e\	8A\J	8c#\J	8gg\	16cc#\	16ee\
.	.	.	.	.	.	.	.	16ee\JJ	16gg\JJ
8AA/L	8AA/L	8AA/L	8AA/L	4a\	8d/L	8f#\L	4ff#\	16dd\LL	16ff#\LL
.	.	.	.	.	.	.	.	16ff#\	16aa\
8AA/	8AA/	8AA/	8AA/	.	8A/	8d\	.	16a\	16a\
.	.	.	.	.	.	.	.	16ff#\	16aa\
8AA/J	8AA/J	8AA/J	8AA/J	8d\	8F#/J	8A\J	8aa\	16dd\	16ff#\
.	.	.	.	.	.	.	.	16ff#\JJ	16aa\JJ
=9	=9	=9	=9	=9	=9	=9	=9	=9	=9
8AA/L	8AA/L	8AA/L	8AA/L	8a\L	4c#\	8e\L	16cc#\LL	16ee\LL	16gg\LL
.	.	.	.	.	.	.	16ee\	16gg\	16cc#\
8AA/	8AA/	8AA/	8AA/	8e\	.	8c#\	16a\	16a\	16gg\
.	.	.	.	.	.	.	16ee\	16gg\	16cc#\
8AA/J	8AA/J	8AA/J	8AA/J	8c#\J	8a\	8A\J	16cc#\	16ee\	16gg\
.	.	.	.	.	.	.	16ee\JJ	16gg\JJ	16cc#\JJ
8AA/L	8AA/L	8AA/L	8AA/L	8a\L	4d\	8f#\L	16dd\LL	16ff#\LL	16ff#\LL
.	.	.	.	.	.	.	16ff#\	16aa\	16dd\
8AA/	8AA/	8AA/	8AA/	8f#\	.	8d\	16a\	16a\	16ff#\
.	.	.	.	.	.	.	16ff#\	16aa\	16dd\
8AA/J	8AA/J	8AA/J	8AA/J	8d\J	8a\	8A\J	16dd\	16ff#\	16ff#\
.	.	.	.	.	.	.	16ff#\JJ	16aa\JJ	16dd\JJ
8AA/L	8AA/L	8AA/L	8AA/L	16c#\LL	16c#\LL	16c#\LL	16ee\LL	16gg\LL	16ee\LL
.	.	.	.	16e\	16e\	16e\	16gg\	16cc#\	16a\
8AA/	8AA/	8AA/	8AA/	16A\	16A\	16A\	16a\	16gg\	16ee\
.	.	.	.	16e\	16e\	16e\	16gg\	16cc#\	16a\
8AA/J	8AA/J	8AA/J	8AA/J	16c#\	16c#\	16c#\	16ee\	16gg\	16ee\
.	.	.	.	16e\JJ	16e\JJ	16e\JJ	16gg\JJ	16cc#\JJ	16a\JJ
8AA/L	8AA/L	8AA/L	8AA/L	16d\LL	16d\LL	16d\LL	16ff#\LL	16ff#\LL	16dd\LL
.	.	.	.	16f#\	16f#\	16f#\	16aa\	16dd\	16a\
8AA/	8AA/	8AA/	8AA/	16A\	16A\	16A\	16a\	16ff#\	16dd\
.	.	.	.	16f#\	16f#\	16f#\	16aa\	16dd\	16a\
8AA/J	8AA/J	8AA/J	8AA/J	16d\	16d\	16d\	16ff#\	16ff#\	16dd\
.	.	.	.	16f#\JJ	16f#\JJ	16f#\JJ	16aa\JJ	16dd\JJ	16a\JJ
=10	=10	=10	=10	=10	=10	=10	=10	=10	=10
8AA/L	8AA/L	8AA/L	8AA/L	16e\LL	16e\LL	16e\LL	8cc#\	8cc#\	8cc#\
.	.	.	.	16g\	16g\	16g\	.	.	.
8C#/	8C#/	8C#/	8C#/	16A\	16A\	16A\	8a/L	8a/L	8a/L
.	.	.	.	16g\	16g\	16g\	.	.	.
8E/J	8E/J	8E/J	8E/J	16e\	16e\	16e\	8a/J	8a/J	8a/J
.	.	.	.	16g\JJ	16g\JJ	16g\JJ	.	.	.
8C#\L	8C#\L	8C#\L	8C#\L	16e\LL	16e\LL	16e\LL	8a/L	8a/L	8a/L
.	.	.	.	16g\	16g\	16g\	.	.	.
8E\	8E\	8E\	8E\	16A\	16A\	16A\	8a/	8a/	8a/
.	.	.	.	16g\	16g\	16g\	.	.	.
8A\J	8A\J	8A\J	8A\J	16e\	16e\	16e\	8a/J	8a/J	8a/J
.	.	.	.	16g\JJ	16g\JJ	16g\JJ	.	.	.
8D\L	8D\L	8D\L	8D\L	8f#\	8f#\	8f#\	16aa\LL	16aa\LL	16aa\LL
.	.	.	.	.	.	.	16ccc\	16ccc\	16ccc\
8F#\	8F#\	8F#\	8F#\	8d\L	8d\L	8d\L	16dd\	16dd\	16dd\
.	.	.	.	.	.	.	16ccc\	16ccc\	16ccc\
8A\J	8A\J	8A\J	8A\J	8d\J	8d\J	8d\J	16aa\	16aa\	16aa\
.	.	.	.	.	.	.	16ccc\JJ	16ccc\JJ	16ccc\JJ
8F#\L	8F#\L	8F#\L	8F#\L	8d\L	8d\L	8d\L	16aa\LL	16aa\LL	16aa\LL
.	.	.	.	.	.	.	16ccc\	16ccc\	16ccc\
8A\	8A\	8A\	8A\	8d\	8d\	8d\	16dd\	16dd\	16dd\
.	.	.	.	.	.	.	16ccc\	16ccc\	16ccc\
8d\J	8d\J	8d\J	8d\J	8d\J	8d\J	8d\J	16aa\	16aa\	16aa\
.	.	.	.	.	.	.	16ccc\JJ	16ccc\JJ	16ccc\JJ
=11	=11	=11	=11	=11	=11	=11	=11	=11	=11
4GG/	4GG/	4GG/	4GG/	8d\L	8d\L	8d\L	8g\L	8g\L	16bb\LL
.	.	.	.	.	.	.	.	.	16ccc\
.	.	.	.	8d\	8d\	8d\	8b\	8b\	16ddd\
.	.	.	.	.	.	.	.	.	16ccc\
8r	8r	8r	8r	8d\J	8d\J	8d\J	8dd\J	8dd\J	16bb\
.	.	.	.	.	.	.	.	.	16aa\JJ
4.r	4.r	4.r	4.r	8d\L	8d\L	8d\L	8b\L	8b\L	16gg\LL
.	.	.	.	.	.	.	.	.	16aa\
.	.	.	.	8d\	8d\	8d\	8dd\	8dd\	16bb\
.	.	.	.	.	.	.	.	.	16aa\
.	.	.	.	8d\J	8d\J	8d\J	8gg\J	8gg\J	16gg\
.	.	.	.	.	.	.	.	.	16ff#\JJ
4G\	4G\	4G\	4G\	8a\L	8a\L	8a\L	8cc#\L	8cc#\L	16ee\LL
.	.	.	.	.	.	.	.	.	16ff#\
.	.	.	.	8a\	8a\	8a\	8ee\	8ee\	16gg\
.	.	.	.	.	.	.	.	.	16ff#\
8r	8r	8r	8r	8a\J	8a\J	8a\J	8aa\J	8aa\J	16ee\
.	.	.	.	.	.	.	.	.	16dd\JJ
4.r	4.r	4.r	4.r	8a\L	8a\L	8a\L	8ee\L	8ee\L	16cc#\LL
.	.	.	.	.	.	.	.	.	16dd\
.	.	.	.	8a\	8a\	8a\	8aa\	8aa\	16ee\
.	.	.	.	.	.	.	.	.	16dd\
.	.	.	.	8a\J	8a\J	8a\J	8ccc#\J	8ccc#\J	16cc#\
.	.	.	.	.	.	.	.	.	16b\JJ
=12	=12	=12	=12	=12	=12	=12	=12	=12	=12
8F#\L	8F#\L	8F#\L	8F#\L	8a\L	8a\L	8a\L	8ddd\L	8ddd\L	16a/LL
.	.	.	.	.	.	.	.	.	16b/
8E\	8E\	8E\	8E\	16f#\LL	16f#\LL	16f#\LL	16dd\LL	16dd\LL	16a/
.	.	.	.	16g\JJ	16g\JJ	16g\JJ	16ee\JJ	16ee\JJ	16g/
8D\J	8D\J	8D\J	8D\J	8a\J	8a\J	8a\J	8ff#\J	8ff#\J	16f#/
.	.	.	.	.	.	.	.	.	16g/JJ
4A\	4A\	4A\	4A\	8A\L	8A\L	8A\L	8a\L	8a\L	16e/LL
.	.	.	.	.	.	.	.	.	16f#/
.	.	.	.	8e\	8e\	8e\	8dd\	8dd\	16g/
.	.	.	.	.	.	.	.	.	16a/
8AA/	8AA/	8AA/	8AA/	8g\J	8g\J	8g\J	8cc#\J	8cc#\J	16b/
.	.	.	.	.	.	.	.	.	16cc#/JJ
2.DD/	2.DD/	2.DD/	2.DD/	2.f#\	2.f#\	2.f#\	4.dd\	4.dd\	16dd/LL
.	.	.	.	.	.	.	.	.	16b/
.	.	.	.	.	.	.	.	.	16a/
.	.	.	.	.	.	.	.	.	16g/
.	.	.	.	.	.	.	.	.	16f#/
.	.	.	.	.	.	.	.	.	16e/JJ
.	.	.	.	.	.	.	4.d/	4.d/	4.d/
==	==	==	==	==	==	==	==	==	==
*>B	*>B	*>B	*>B	*>B	*>B	*>B	*>B	*>B	*>B
16D\LL	16D\LL	16D\LL	16D\LL	8a\L	8a\L	8a\L	8d/L	8d/L	8d/L
16C#\	16C#\	16C#\	16C#\	.	.	.	.	.	.
16D\	16D\	16D\	16D\	8a\	8a\	8a\	8f#/	8f#/	8f#/
16E\	16E\	16E\	16E\	.	.	.	.	.	.
16F#\	16F#\	16F#\	16F#\	8a\J	8a\J	8a\J	8a/J	8a/J	8a/J
16G\JJ	16G\JJ	16G\JJ	16G\JJ	.	.	.	.	.	.
16A\LL	16A\LL	16A\LL	16A\LL	8a\L	8a\L	8a\L	8c#/L	8c#/L	8c#/L
16B\	16B\	16B\	16B\	.	.	.	.	.	.
16A\	16A\	16A\	16A\	8a\	8a\	8a\	8e/	8e/	8e/
16G\	16G\	16G\	16G\	.	.	.	.	.	.
16F#\	16F#\	16F#\	16F#\	8a\J	8a\J	8a\J	8a/J	8a/J	8a/J
16E\JJ	16E\JJ	16E\JJ	16E\JJ	.	.	.	.	.	.
16F#\LL	16F#\LL	16F#\LL	16F#\LL	8a\L	8a\L	8a\L	8d/L	8d/L	8d/L
16A\	16A\	16A\	16A\	.	.	.	.	.	.
16G\	16G\	16G\	16G\	8a\	8a\	8a\	8f#/	8f#/	8f#/
16F#\	16F#\	16F#\	16F#\	.	.	.	.	.	.
16E\	16E\	16E\	16E\	8a\J	8a\J	8a\J	8a/J	8a/J	8a/J
16D\JJ	16D\JJ	16D\JJ	16D\JJ	.	.	.	.	.	.
16C#/LL	16C#/LL	16C#/LL	16C#/LL	8a\L	8a\L	8a\L	8A/L	8A/L	8A/L
16E/	16E/	16E/	16E/	.	.	.	.	.	.
16D/	16D/	16D/	16D/	8a\	8a\	8a\	8e/	8e/	8e/
16C#/	16C#/	16C#/	16C#/	.	.	.	.	.	.
16BB/	16BB/	16BB/	16BB/	8a\J	8a\J	8a\J	8a/J	8a/J	8a/J
16AA/JJ	16AA/JJ	16AA/JJ	16AA/JJ	.	.	.	.	.	.
=14	=14	=14	=14	=14	=14	=14	=14	=14	=14
8E\L	8E\L	8E\L	8E\L	16g\LL	16g\LL	16g\LL	8b\L	8b\L	8b\L
.	.	.	.	16f#\	16f#\	16f#\	.	.	.
8G\	8G\	8G\	8G\	16e\	16e\	16e\	8b\	8b\	8b\
.	.	.	.	16f#\	16f#\	16f#\	.	.	.
8B\J	8B\J	8B\J	8B\J	16g\	16g\	16g\	8b\J	8b\J	8b\J
.	.	.	.	16a\JJ	16a\JJ	16a\JJ	.	.	.
8D#\L	8D#\L	8D#\L	8D#\L	16b\LL	16b\LL	16b\LL	8b\L	8b\L	8b\L
.	.	.	.	16cc\	16cc\	16cc\	.	.	.
8F#\	8F#\	8F#\	8F#\	16b\	16b\	16b\	8b\	8b\	8b\
.	.	.	.	16a\	16a\	16a\	.	.	.
8B\J	8B\J	8B\J	8B\J	16g\	16g\	16g\	8b\J	8b\J	8b\J
.	.	.	.	16f#\JJ	16f#\JJ	16f#\JJ	.	.	.
8E\L	8E\L	8E\L	8E\L	16g\LL	16g\LL	16g\LL	8b\L	8b\L	8b\L
.	.	.	.	16b\	16b\	16b\	.	.	.
8G\	8G\	8G\	8G\	16a\	16a\	16a\	8b\	8b\	8b\
.	.	.	.	16g\	16g\	16g\	.	.	.
8B\J	8B\J	8B\J	8B\J	16f#\	16f#\	16f#\	8b\J	8b\J	8b\J
.	.	.	.	16e\JJ	16e\JJ	16e\JJ	.	.	.
8BB\L	8BB\L	8BB\L	8BB\L	16d#\LL	16d#\LL	16d#\LL	8b\L	8b\L	8b\L
.	.	.	.	16e\	16e\	16e\	.	.	.
8F#\	8F#\	8F#\	8F#\	16d#\	16d#\	16d#\	8b\	8b\	8b\
.	.	.	.	16c#\	16c#\	16c#\	.	.	.
8B\J	8B\J	8B\J	8B\J	16B\	16B\	16B\	8b\J	8b\J	8b\J
.	.	.	.	16A\JJ	16A\JJ	16A\JJ	.	.	.
=15	=15	=15	=15	=15	=15	=15	=15	=15	=15
4GG/	4GG/	4GG/	4GG/	8G/	8G/	8G/	8b\L	8b\L	(16ee\LL
.	.	.	.	.	.	.	.	.	16ff#\
.	.	.	.	8e\L	8e\L	8e\L	8ee\	8ee\	16gg\)
.	.	.	.	.	.	.	.	.	16ee\
8r	8r	8r	8r	8e\J	8e\J	8e\J	8gg\J	8gg\J	16dd#\
.	.	.	.	.	.	.	.	.	16ee\JJ
4AA/	4AA/	4AA/	4AA/	8e\L	8e\L	8e\L	8cc\L	8cc\L	16cc\LL
.	.	.	.	.	.	.	.	.	16ee\
.	.	.	.	8e\	8e\	8e\	8ee\	8ee\	16gg\
.	.	.	.	.	.	.	.	.	16ee\
8r	8r	8r	8r	8e\J	8e\J	8e\J	8gg\J	8gg\J	16dd#\
.	.	.	.	.	.	.	.	.	16ee\JJ
4BB/	4BB/	4BB/	4BB/	8e\L	8e\L	8e\L	8b\L	8b\L	(16b\LL
.	.	.	.	.	.	.	.	.	32ee\LLL
.	.	.	.	.	.	.	.	.	32ff#\JJJ
.	.	.	.	8e\	8e\	8e\	8ee\	8ee\	16gg\)
.	.	.	.	.	.	.	.	.	16ee\
8r	8r	8r	8r	8e\J	8e\J	8e\J	8gg\J	8gg\J	16dd#\
.	.	.	.	.	.	.	.	.	16ee\JJ
4C/	4C/	4C/	4C/	8e\L	8e\L	8e\L	8a\L	8a\L	16a\LL
.	.	.	.	.	.	.	.	.	16ee\
.	.	.	.	8e\	8e\	8e\	8ee\	8ee\	16gg\
.	.	.	.	.	.	.	.	.	16ee\
8r	8r	8r	8r	8e\J	8e\J	8e\J	8gg\J	8gg\J	16dd#\
.	.	.	.	.	.	.	.	.	16ee\JJ
=16	=16	=16	=16	=16	=16	=16	=16	=16	=16
4GG/	4GG/	4GG/	4GG/	8e\L	8e\L	8e\L	8b\L	8b\L	(16b\LL
.	.	.	.	.	.	.	.	.	32ee\LLL
.	.	.	.	.	.	.	.	.	32ff#\JJJ
.	.	.	.	8e\	8e\	8e\	8ee\	8ee\	16gg\)
.	.	.	.	.	.	.	.	.	16ee\
8r	8r	8r	8r	8e\J	8e\J	8e\J	8gg\J	8gg\J	16dd#\
.	.	.	.	.	.	.	.	.	16ee\JJ
4AA/	4AA/	4AA/	4AA/	8e\L	8e\L	8e\L	8cc\L	8cc\L	16cc\LL
.	.	.	.	.	.	.	.	.	16ee\
.	.	.	.	8e\	8e\	8e\	8ee\	8ee\	16gg\
.	.	.	.	.	.	.	.	.	16ee\
8r	8r	8r	8r	8e\J	8e\J	8e\J	8gg\J	8gg\J	16dd#\
.	.	.	.	.	.	.	.	.	16ee\JJ
8BB/L	8BB/L	8BB/L	8BB/L	8g\L	8g\L	8g\L	8b\L	8b\L	(16b\LL
.	.	.	.	.	.	.	.	.	32ee\LLL
.	.	.	.	.	.	.	.	.	32ff#\JJJ
8AA/	8AA/	8AA/	8AA/	8b\	8b\	8b\	8ee\	8ee\	16gg\)
.	.	.	.	.	.	.	.	.	16ee\
8BB/J	8BB/J	8BB/J	8BB/J	8f#\J	8f#\J	8f#\J	8dd#\J	8dd#\J	16b\
.	.	.	.	.	.	.	.	.	16dd#\JJ
8EE/L	8EE/L	8EE/L	8EE/L	4g\	4g\	4g\	4ee\	4ee\	16ee\LL
.	.	.	.	.	.	.	.	.	16cc\
8GG/	8GG/	8GG/	8GG/	.	.	.	.	.	16b\
.	.	.	.	.	.	.	.	.	16a\
8BB/J	8BB/J	8BB/J	8BB/J	8r	8r	8r	8r	8r	16g\
.	.	.	.	.	.	.	.	.	16f#\JJ
=17	=17	=17	=17	=17	=17	=17	=17	=17	=17
4E\	4E\	4E\	4E\	8e\L	8e\L	8e\L	1.r	2.r	16e/LL
.	.	.	.	.	.	.	.	.	16d#/
.	.	.	.	8g\	8g\	8g\	.	.	16e/
.	.	.	.	.	.	.	.	.	16f#/
8r	8r	8r	8r	8b\J	8b\J	8b\J	.	.	16g/
.	.	.	.	.	.	.	.	.	16a/JJ
4.r	4.r	4.r	4.r	8d#\L	8d#\L	8d#\L	.	.	16b/LL
.	.	.	.	.	.	.	.	.	16cc/
.	.	.	.	8f#\	8f#\	8f#\	.	.	16b/
.	.	.	.	.	.	.	.	.	16a/
.	.	.	.	8b\J	8b\J	8b\J	.	.	16g/
.	.	.	.	.	.	.	.	.	16f#/JJ
2.r	2.r	2.r	2.r	8e\L	8e\L	8e\L	.	16e/LL	8g\L
.	.	.	.	.	.	.	.	16d#/	.
.	.	.	.	8g\	8g\	8g\	.	16e/	8b\
.	.	.	.	.	.	.	.	16f#/	.
.	.	.	.	8b\J	8b\J	8b\J	.	16g/	8ee\J
.	.	.	.	.	.	.	.	16a/JJ	.
.	.	.	.	8B\L	8B\L	8B\L	.	16b/LL	16dd#\LL
.	.	.	.	.	.	.	.	16cc/	16ee\
.	.	.	.	8f#\	8f#\	8f#\	.	16b/	16dd#\
.	.	.	.	.	.	.	.	16a/	16cc#\
.	.	.	.	8b\J	8b\J	8b\J	.	16g/	16b\
.	.	.	.	.	.	.	.	16f#/JJ	16a\JJ
=18	=18	=18	=18	=18	=18	=18	=18	=18	=18
2.r	2.r	2.r	2.r	16e\LL	16e\LL	16e\LL	16e/LL	8g\L	8g/L
.	.	.	.	16d#\	16d#\	16d#\	16d#/	.	.
.	.	.	.	16e\	16e\	16e\	16e/	8b\	8e/J
.	.	.	.	16f#\	16f#\	16f#\	16f#/	.	.
.	.	.	.	16g\	16g\	16g\	16g/	8ee\J	8bb\
.	.	.	.	16a\JJ	16a\JJ	16a\JJ	16a/JJ	.	.
.	.	.	.	16b\LL	16b\LL	16b\LL	16b/LL	16dd#\LL	8bb\L
.	.	.	.	16cc\	16cc\	16cc\	16cc/	16ee\	.
.	.	.	.	16b\	16b\	16b\	16b/	16dd#\	8bb\
.	.	.	.	16a\	16a\	16a\	16a/	16cc#\	.
.	.	.	.	16g\	16g\	16g\	16g/	16b\	8bb\J
.	.	.	.	16f#\JJ	16f#\JJ	16f#\JJ	16f#/JJ	16a\JJ	.
16E\LL	16E\LL	16E\LL	16E\LL	8e\L	8e\L	8e\L	8g\L	8g/L	8bb\L
16D#\	16D#\	16D#\	16D#\	.	.	.	.	.	.
16E\	16E\	16E\	16E\	8g\	8g\	8g\	8b\	8e/J	8bb\
16F#\	16F#\	16F#\	16F#\	.	.	.	.	.	.
16G\	16G\	16G\	16G\	8B\J	8B\J	8B\J	8ee\J	8bb\	8bb\J
16A\JJ	16A\JJ	16A\JJ	16A\JJ	.	.	.	.	.	.
16B\LL	16B\LL	16B\LL	16B\LL	8f#\L	8f#\L	8f#\L	16dd#\LL	8bb\L	8bb\L
16c\	16c\	16c\	16c\	.	.	.	16ee\	.	.
16B\	16B\	16B\	16B\	8a\	8a\	8a\	16dd#\	8bb\	8bb\
16A\	16A\	16A\	16A\	.	.	.	16cc#\	.	.
16G\	16G\	16G\	16G\	8B\J	8B\J	8B\J	16b\	8bb\J	8bb\J
16F#\JJ	16F#\JJ	16F#\JJ	16F#\JJ	.	.	.	16a\JJ	.	.
=19	=19	=19	=19	=19	=19	=19	=19	=19	=19
16E\LL	16E\LL	16E\LL	16E\LL	8g\L	8g\L	8g\L	16b/LL	8b\L	16gg\LL
16D#\	16D#\	16D#\	16D#\	.	.	.	16cc#/	.	16aa\
16E\	16E\	16E\	16E\	8g\	8g\	8g\	16b/	8ee\	16gg\
16F#\	16F#\	16F#\	16F#\	.	.	.	16a/	.	16ff#\
16G\	16G\	16G\	16G\	8g\J	8g\J	8g\J	16g/	8b\J	16ee\
16E\JJ	16E\JJ	16E\JJ	16E\JJ	.	.	.	16f#/JJ	.	16dd\JJ
16A\LL	16A\LL	16A\LL	16A\LL	8g\L	8g\L	8g\L	8e/L	16cc#\LL	16cc#\LL
16B\	16B\	16B\	16B\	.	.	.	.	16dd\	16b\
16A\	16A\	16A\	16A\	8g\	8g\	8g\	8a/	16cc#\	16cc#\
16G\	16G\	16G\	16G\	.	.	.	.	16b\	16dd\
16F#\	16F#\	16F#\	16F#\	8g\J	8g\J	8g\J	8e/J	16a\	16ee\
16E\JJ	16E\JJ	16E\JJ	16E\JJ	.	.	.	.	16g\JJ	16cc#\JJ
16D\LL	16D\LL	16D\LL	16D\LL	8f#\L	8f#\L	8f#\L	16f#/LL	8a\L	16ff#\LL
16C#\	16C#\	16C#\	16C#\	.	.	.	16b/	.	16gg\
16D\	16D\	16D\	16D\	8f#\	8f#\	8f#\	16a/	8dd\	16ff#\
16E\	16E\	16E\	16E\	.	.	.	16g/	.	16ee\
16F#\	16F#\	16F#\	16F#\	8f#\J	8f#\J	8f#\J	16f#/	8a\J	16dd\
16D\JJ	16D\JJ	16D\JJ	16D\JJ	.	.	.	16e/JJ	.	16cc#\JJ
16G\LL	16G\LL	16G\LL	16G\LL	8f#\L	8f#\L	8f#\L	8d/L	16b/LL	16b\LL
16A\	16A\	16A\	16A\	.	.	.	.	16cc#/	16a#\
16G\	16G\	16G\	16G\	8f#\	8f#\	8f#\	8g/	16b/	16b\
16F#\	16F#\	16F#\	16F#\	.	.	.	.	16a/	16cc#\
16E\	16E\	16E\	16E\	8f#\J	8f#\J	8f#\J	8d/J	16g/	16dd\
16D\JJ	16D\JJ	16D\JJ	16D\JJ	.	.	.	.	16f#/JJ	16b\JJ
=20	=20	=20	=20	=20	=20	=20	=20	=20	=20
16C#/LL	16C#/LL	16C#/LL	16C#/LL	8e\L	8e\L	8e\L	16e/LL	8e\L	16ee\LL
16BB/	16BB/	16BB/	16BB/	.	.	.	16a/	.	16ff#\
16C#/	16C#/	16C#/	16C#/	8e\	8e\	8e\	16g/	8cc#\	16ee\
16D/	16D/	16D/	16D/	.	.	.	16f#/	.	16dd\
16E/	16E/	16E/	16E/	8e\J	8e\J	8e\J	16e/	8gg\J	16cc#\
16C#/JJ	16C#/JJ	16C#/JJ	16C#/JJ	.	.	.	16d/JJ	.	16b\JJ
16F#\LL	16F#\LL	16F#\LL	16F#\LL	8e\L	8e\L	8e\L	8c#/L	8a#\L	16a#/LL
16G\	16G\	16G\	16G\	.	.	.	.	.	16g#/
16F#\	16F#\	16F#\	16F#\	8e\	8e\	8e\	8f#/	8cc#\	16a#/
16E\	16E\	16E\	16E\	.	.	.	.	.	16b/
16D\	16D\	16D\	16D\	8e\J	8e\J	8e\J	8a#/J	8ff#\J	16cc#/
16C#\JJ	16C#\JJ	16C#\JJ	16C#\JJ	.	.	.	.	.	16a#/JJ
4BB/	4BB/	4BB/	4BB/	8d\L	8d\L	16d\LL	8b\L	8b\L	8b\L
.	.	.	.	.	.	16c#\	.	.	.
.	.	.	.	8f#\	8f#\	16B\	8dd\	8dd\	8dd\
.	.	.	.	.	.	16c#\	.	.	.
8r	8r	8r	8r	8b\J	8b\J	16d\	8ff#\J	8ff#\J	8ff#\J
.	.	.	.	.	.	16e\JJ	.	.	.
4FF#/	4FF#/	4FF#/	4FF#/	8c#\L	8c#\L	16f#\LL	8a#\L	8a#\L	8a#\L
.	.	.	.	.	.	16g\	.	.	.
.	.	.	.	8e\	8e\	16f#\	8cc#\	8cc#\	8cc#\
.	.	.	.	.	.	16e\	.	.	.
8r	8r	8r	8r	8a#\J	8a#\J	16d\	8ff#\J	8ff#\J	8ff#\J
.	.	.	.	.	.	16c#\JJ	.	.	.
=21	=21	=21	=21	=21	=21	=21	=21	=21	=21
4BB/	4BB/	4BB/	4BB/	16B\LL	16B\LL	8d\L	8b\L	8b\L	8b\L
.	.	.	.	16A#\	16A#\	.	.	.	.
.	.	.	.	16B\	16B\	8f#\	8dd\	8dd\	8dd\
.	.	.	.	16c#\	16c#\	.	.	.	.
8r	8r	8r	8r	16d\	16d\	8b\J	8ff#\J	8ff#\J	8ff#\J
.	.	.	.	16e\JJ	16e\JJ	.	.	.	.
4F#\	4F#\	4F#\	4F#\	16f#\LL	16f#\LL	16a#\LL	8f#\L	8f#\L	8f#\L
.	.	.	.	16g\	16g\	16b\	.	.	.
.	.	.	.	16f#\	16f#\	16a#\	8cc#\	8cc#\	8cc#\
.	.	.	.	16e\	16e\	16g#\	.	.	.
8r	8r	8r	8r	16d\	16d\	16f#\	8ff#\J	8ff#\J	8ff#\J
.	.	.	.	16c#\JJ	16c#\JJ	16e\JJ	.	.	.
8BB/L	8BB/L	8BB/L	8BB/L	8d\L	8d\L	8d\L	16b\LL	16b\LL	16b\LL
.	.	.	.	.	.	.	16a#\	16a#\	16a#\
8D/	8D/	8D/	8D/	8f#\	8f#\	8B\	16b\	16b\	16b\
.	.	.	.	.	.	.	16cc#\	16cc#\	16cc#\
8F#/J	8F#/J	8F#/J	8F#/J	8b\J	8b\J	8f#\J	16dd\	16dd\	16dd\
.	.	.	.	.	.	.	16ee\JJ	16ee\JJ	16ee\JJ
8AA#/L	8AA#/L	8AA#/L	8AA#/L	16a#\LL	16a#\LL	8f#\L	16ff#\LL	16ff#\LL	16ff#\LL
.	.	.	.	16b\	16b\	.	16gg\	16gg\	16gg\
8C#/	8C#/	8C#/	8C#/	16a#\	16a#\	8f#\	16ff#\	16ff#\	16ff#\
.	.	.	.	16g#\	16g#\	.	16ee\	16ee\	16ee\
8F#/J	8F#/J	8F#/J	8F#/J	16f#\	16f#\	8f#\J	16dd\	16dd\	16dd\
.	.	.	.	16e\JJ	16e\JJ	.	16cc#\JJ	16cc#\JJ	16cc#\JJ
=22	=22	=22	=22	=22	=22	=22	=22	=22	=22
16BB/LL	16BB/LL	16BB/LL	16BB/LL	8d\L	8d\L	8f#\L	8b/L	8b/L	8b/L
16AA#/	16AA#/	16AA#/	16AA#/	.	.	.	.	.	.
16BB/	16BB/	16BB/	16BB/	8f#\	8B\	8f#\	8dd/	8dd/	8dd/
16C#/	16C#/	16C#/	16C#/	.	.	.	.	.	.
16D/	16D/	16D/	16D/	8b\J	8f#\J	8f#\J	8f#/J	8f#/J	8f#/J
16E/JJ	16E/JJ	16E/JJ	16E/JJ	.	.	.	.	.	.
16F#\LL	16F#\LL	16F#\LL	16F#\LL	16a#\LL	8f#\L	8f#\L	8cc#/L	8cc#/L	8cc#/L
16G\	16G\	16G\	16G\	16b\	.	.	.	.	.
16F#\	16F#\	16F#\	16F#\	16a#\	8f#\	8f#\	8ee/	8ee/	8ee/
16E\	16E\	16E\	16E\	16g#\	.	.	.	.	.
16D\	16D\	16D\	16D\	16f#\	8f#\J	8f#\J	8f#/J	8f#/J	8f#/J
16C#\JJ	16C#\JJ	16C#\JJ	16C#\JJ	16e\JJ	.	.	.	.	.
16BB/LL	16BB/LL	16BB/LL	16BB/LL	16f#\LL	8f#\L	16dd\LL	8dd\L	8dd\L	8dd\L
16AA#/	16AA#/	16AA#/	16AA#/	16g\	.	16ee\	.	.	.
16BB/	16BB/	16BB/	16BB/	16f#\	8b\	16dd\	8dd\	8dd\	8dd\
16C#/	16C#/	16C#/	16C#/	16e\	.	16cc#\	.	.	.
16D/	16D/	16D/	16D/	16d\	8f#\J	16b\	8dd\J	8dd\J	8dd\J
16BB/JJ	16BB/JJ	16BB/JJ	16BB/JJ	16c#\JJ	.	16a\JJ	.	.	.
16E/LL	16E/LL	16E/LL	16E/LL	8B\L	16g\LL	16g\LL	8dd\L	8dd\L	8dd\L
16F#/	16F#/	16F#/	16F#/	.	16a\	16f#\	.	.	.
16E/	16E/	16E/	16E/	8e\	16g\	16g\	8dd\	8dd\	8dd\
16D/	16D/	16D/	16D/	.	16f#\	16a\	.	.	.
16C#/	16C#/	16C#/	16C#/	8B\J	16e\	16b\	8dd\J	8dd\J	8dd\J
16BB/JJ	16BB/JJ	16BB/JJ	16BB/JJ	.	16d\JJ	16g\JJ	.	.	.
=23	=23	=23	=23	=23	=23	=23	=23	=23	=23
16AA/LL	16AA/LL	16AA/LL	16AA/LL	16c#\LL	8e\L	16cc#\LL	8cc#\L	8cc#\L	8cc#\L
16GG/	16GG/	16GG/	16GG/	16f#\	.	16dd\	.	.	.
16AA/	16AA/	16AA/	16AA/	16e\	8a\	16cc#\	8cc#\	8cc#\	8cc#\
16BB/	16BB/	16BB/	16BB/	16d\	.	16b\	.	.	.
16C#/	16C#/	16C#/	16C#/	16c#\	8e\J	16a\	8cc#\J	8cc#\J	8cc#\J
16AA/JJ	16AA/JJ	16AA/JJ	16AA/JJ	16B\JJ	.	16g\JJ	.	.	.
16D/LL	16D/LL	16D/LL	16D/LL	8A/L	16f#\LL	16f#\LL	8cc#\L	8cc#\L	8cc#\L
16E/	16E/	16E/	16E/	.	16g\	16e\	.	.	.
16D/	16D/	16D/	16D/	8d/	16f#\	16f#\	8cc#\	8cc#\	8cc#\
16C#/	16C#/	16C#/	16C#/	.	16e\	16g\	.	.	.
16BB/	16BB/	16BB/	16BB/	8A/J	16d\	16a\	8cc#\J	8cc#\J	8cc#\J
16AA/JJ	16AA/JJ	16AA/JJ	16AA/JJ	.	16c#\JJ	16f#\JJ	.	.	.
16GG/LL	16GG/LL	16GG/LL	16GG/LL	16B/LL	8d\L	16b\LL	8b\L	8b\L	8b\L
16FF#/	16FF#/	16FF#/	16FF#/	16e/	.	16cc#\	.	.	.
16GG/	16GG/	16GG/	16GG/	16d/	8g\	16b\	8b\	8b\	8b\
16AA/	16AA/	16AA/	16AA/	16c#/	.	16a\	.	.	.
16BB/	16BB/	16BB/	16BB/	16B/	8d\J	16g\	8b\J	8b\J	8b\J
16GG/JJ	16GG/JJ	16GG/JJ	16GG/JJ	16A/JJ	.	16f#\JJ	.	.	.
16C#/LL	16C#/LL	16C#/LL	16C#/LL	8G\L	16e\LL	16e\LL	8b\L	8b\L	8b\L
16D/	16D/	16D/	16D/	.	16f#\	16d\	.	.	.
16C#/	16C#/	16C#/	16C#/	8g\	16e\	16e\	8b\	8b\	8b\
16BB/	16BB/	16BB/	16BB/	.	16d\	16f#\	.	.	.
16AA#/	16AA#/	16AA#/	16AA#/	8c#\J	16c#\	16g\	8b\J	8b\J	8b\J
16GG#/JJ	16GG#/JJ	16GG#/JJ	16GG#/JJ	.	16B\JJ	16e\JJ	.	.	.
=24	=24	=24	=24	=24	=24	=24	=24	=24	=24
8FF#/L	8FF#/L	8FF#/L	8FF#/L	4f#\	8c#/L	8f#\L	4a#/	8a#\L	16a#/LL
.	.	.	.	.	.	.	.	.	16cc#/
8FF#/	8FF#/	8FF#/	8FF#/	.	8A#/	8c#\	.	8cc#\	16f#/
.	.	.	.	.	.	.	.	.	16cc#/
8FF#/J	8FF#/J	8FF#/J	8FF#/J	8c#\	8F#/J	8A#\J	8cc#\	8ff#\J	16a#/
.	.	.	.	.	.	.	.	.	16cc#/JJ
8FF#/L	8FF#/L	8FF#/L	8FF#/L	4f#\	8d/L	8f#\L	4b\	8b\L	16b/LL
.	.	.	.	.	.	.	.	.	16dd/
8FF#/	8FF#/	8FF#/	8FF#/	.	8B/	8d\	.	8dd\	16f#/
.	.	.	.	.	.	.	.	.	16dd/
8FF#/J	8FF#/J	8FF#/J	8FF#/J	8d\	8F#/J	8B\J	8dd\	8ff#\J	16b/
.	.	.	.	.	.	.	.	.	16dd/JJ
8FF#/L	8FF#/L	8FF#/L	8FF#/L	4f#\	8c#/L	8e\L	4cc#\	16a#/LL	16cc#\LL
.	.	.	.	.	.	.	.	16cc#/	16ee\
8FF#/	8FF#/	8FF#/	8FF#/	.	8A#/	8c#\	.	16f#/	16f#\
.	.	.	.	.	.	.	.	16cc#/	16ee\
8FF#/J	8FF#/J	8FF#/J	8FF#/J	8c#\	8F#/J	8A#\J	8ee\	16a#/	16cc#\
.	.	.	.	.	.	.	.	16cc#/JJ	16ee\JJ
8FF#/L	8FF#/L	8FF#/L	8FF#/L	4f#\	8B/L	8d/L	4dd\	16b/LL	16dd\LL
.	.	.	.	.	.	.	.	16dd/	16ff#\
8FF#/	8FF#/	8FF#/	8FF#/	.	8F#/	8B/	.	16f#/	16f#\
.	.	.	.	.	.	.	.	16dd/	16ff#\
8FF#/J	8FF#/J	8FF#/J	8FF#/J	8B/	8D/J	8F#/J	8ff#\	16b/	16dd\
.	.	.	.	.	.	.	.	16dd/JJ	16ff#\JJ
=25	=25	=25	=25	=25	=25	=25	=25	=25	=25
8FF#/L	8FF#/L	8FF#/L	8FF#/L	8f#\L	4A#/	8c#/L	16a#/LL	16cc#\LL	16ee\LL
.	.	.	.	.	.	.	16cc#/	16ee\	16a#\
8FF#/	8FF#/	8FF#/	8FF#/	8c#\	.	8A#/	16f#/	16f#\	16ee\
.	.	.	.	.	.	.	16cc#/	16ee\	16a#\
8FF#/J	8FF#/J	8FF#/J	8FF#/J	8A#\J	8f#\	8F#/J	16a#/	16cc#\	16ee\
.	.	.	.	.	.	.	16cc#/JJ	16ee\JJ	16a#\JJ
8FF#/L	8FF#/L	8FF#/L	8FF#/L	8f#\L	4d\	8d/L	16b/LL	16dd\LL	16dd\LL
.	.	.	.	.	.	.	16dd/	16ff#\	16b\
8FF#/	8FF#/	8FF#/	8FF#/	8d\	.	8B/	16f#/	16f#\	16dd\
.	.	.	.	.	.	.	16dd/	16ff#\	16b\
8FF#/J	8FF#/J	8FF#/J	8FF#/J	8B\J	8b\	8F#/J	16b/	16dd\	16dd\
.	.	.	.	.	.	.	16dd/JJ	16ff#\JJ	16b\JJ
8FF#/L	8FF#/L	8FF#/L	8FF#/L	16a#\LL	16a#\LL	16a#\LL	16cc#/LL	16ee\LL	16cc#/LL
.	.	.	.	16cc#\	16cc#\	16cc#\	16ee/	16a#\	16f#/
8FF#/	8FF#/	8FF#/	8FF#/	16f#\	16f#\	16f#\	16f#/	16ee\	16cc#/
.	.	.	.	16cc#\	16cc#\	16cc#\	16ee/	16a#\	16f#/
8FF#/J	8FF#/J	8FF#/J	8FF#/J	16a#\	16a#\	16a#\	16cc#/	16ee\	16cc#/
.	.	.	.	16cc#\JJ	16cc#\JJ	16cc#\JJ	16ee/JJ	16a#\JJ	16f#/JJ
8FF#/L	8FF#/L	8FF#/L	8FF#/L	16b\LL	16b\LL	16b\LL	16dd/LL	16dd\LL	16b/LL
.	.	.	.	16dd\	16dd\	16dd\	16ff#/	16b\	16f#/
8FF#/	8FF#/	8FF#/	8FF#/	16f#\	16f#\	16f#\	16f#/	16dd\	16b/
.	.	.	.	16dd\	16dd\	16dd\	16ff#/	16b\	16f#/
8FF#/J	8FF#/J	8FF#/J	8FF#/J	16b\	16b\	16b\	16dd/	16dd\	16b/
.	.	.	.	16dd\JJ	16dd\JJ	16dd\JJ	16ff#/JJ	16b\JJ	16f#/JJ
=26	=26	=26	=26	=26	=26	=26	=26	=26	=26
8FF#/L	8FF#/L	8FF#/L	8FF#/L	16cc#\LL	16cc#\LL	16cc#\LL	8a#/	8a#/	8a#/
.	.	.	.	16ee\	16ee\	16ee\	.	.	.
8AA#/	8AA#/	8AA#/	8AA#/	16f#\	16f#\	16f#\	8f#/L	8f#/L	8f#/L
.	.	.	.	16ee\	16ee\	16ee\	.	.	.
8C#/J	8C#/J	8C#/J	8C#/J	16cc#\	16cc#\	16cc#\	8f#/J	8f#/J	8f#/J
.	.	.	.	16ee\JJ	16ee\JJ	16ee\JJ	.	.	.
8AA#/L	8AA#/L	8AA#/L	8AA#/L	16cc#\LL	16cc#\LL	16cc#\LL	8f#/L	8f#/L	8f#/L
.	.	.	.	16ee\	16ee\	16ee\	.	.	.
8C#/	8C#/	8C#/	8C#/	16f#\	16f#\	16f#\	8f#/	8f#/	8f#/
.	.	.	.	16ee\	16ee\	16ee\	.	.	.
8F#/J	8F#/J	8F#/J	8F#/J	16cc#\	16cc#\	16cc#\	8f#/J	8f#/J	8f#/J
.	.	.	.	16ee\JJ	16ee\JJ	16ee\JJ	.	.	.
8BB\L	8BB\L	8BB\L	8BB\L	8dd#\	8dd#\	8dd#\	16ff#\LL	16ff#\LL	16ff#\LL
.	.	.	.	.	.	.	16aa\	16aa\	16aa\
8D#\	8D#\	8D#\	8D#\	8B/L	8B/L	8B/L	16b\	16b\	16b\
.	.	.	.	.	.	.	16aa\	16aa\	16aa\
8F#\J	8F#\J	8F#\J	8F#\J	8B/J	8B/J	8B/J	16ff#\	16ff#\	16ff#\
.	.	.	.	.	.	.	16aa\JJ	16aa\JJ	16aa\JJ
8D#\L	8D#\L	8D#\L	8D#\L	8B/L	8B/L	8B/L	16ff#\LL	16ff#\LL	16ff#\LL
.	.	.	.	.	.	.	16aa\	16aa\	16aa\
8F#\	8F#\	8F#\	8F#\	8B/	8B/	8B/	16b\	16b\	16b\
.	.	.	.	.	.	.	16aa\	16aa\	16aa\
8B\J	8B\J	8B\J	8B\J	8B/J	8B/J	8B/J	16ff#\	16ff#\	16ff#\
.	.	.	.	.	.	.	16aa\JJ	16aa\JJ	16aa\JJ
=27	=27	=27	=27	=27	=27	=27	=27	=27	=27
4EE/	4EE/	4EE/	4EE/	8B/L	8B/L	8B/L	8e/L	8e/L	16gg\LL
.	.	.	.	.	.	.	.	.	16aa\
.	.	.	.	8B/	8B/	8B/	8g/	8g/	16bb\
.	.	.	.	.	.	.	.	.	16aa\
8r	8r	8r	8r	8B/J	8B/J	8B/J	8b/J	8b/J	16gg\
.	.	.	.	.	.	.	.	.	16ff#\JJ
4.r	4.r	4.r	4.r	8B/L	8B/L	8B/L	8g\L	8g\L	16ee\LL
.	.	.	.	.	.	.	.	.	16ff#\
.	.	.	.	8B/	8B/	8B/	8b\	8b\	16gg\
.	.	.	.	.	.	.	.	.	16ff#\
.	.	.	.	8B/J	8B/J	8B/J	8ee\J	8ee\J	16ee\
.	.	.	.	.	.	.	.	.	16dd\JJ
4E\	4E\	4E\	4E\	8f#\L	8f#\L	8f#\L	8a#\L	8a#\L	16cc#\LL
.	.	.	.	.	.	.	.	.	16dd\
.	.	.	.	8f#\	8f#\	8f#\	8cc#\	8cc#\	16ee\
.	.	.	.	.	.	.	.	.	16dd\
8r	8r	8r	8r	8f#\J	8f#\J	8f#\J	8ff#\J	8ff#\J	16cc#\
.	.	.	.	.	.	.	.	.	16b\JJ
4.r	4.r	4.r	4.r	8f#\L	8f#\L	8f#\L	8cc#\L	8cc#\L	16a#/LL
.	.	.	.	.	.	.	.	.	16b/
.	.	.	.	8f#\	8f#\	8f#\	8ff#\	8ff#\	16cc#/
.	.	.	.	.	.	.	.	.	16b/
.	.	.	.	8f#\J	8f#\J	8f#\J	8aa#\J	8aa#\J	16a#/
.	.	.	.	.	.	.	.	.	16g#/JJ
=28	=28	=28	=28	=28	=28	=28	=28	=28	=28
8D/L	8D/L	8D/L	8D/L	16f#\LL	16f#\LL	16f#\LL	8bb\L	8bb\L	16f#/LL
.	.	.	.	16e\	16e\	16e\	.	.	16g/
8C#/	8C#/	8C#/	8C#/	16d\	16d\	16d\	16b\LL	16b\LL	16f#/
.	.	.	.	16e\JJ	16e\JJ	16e\JJ	16cc#\JJ	16cc#\JJ	16e/
8BB/J	8BB/J	8BB/J	8BB/J	8f#\J	8f#\J	8f#\J	8dd\J	8dd\J	16d/
.	.	.	.	.	.	.	.	.	16e/JJ
4F#\	4F#\	4F#\	4F#\	8F#/L	8F#/L	8F#/L	8f#/L	8f#/L	16c#/LL
.	.	.	.	.	.	.	.	.	16d/
.	.	.	.	16c#/LL	16c#/LL	16c#/LL	8b/	8b/	16e/
.	.	.	.	16d/JJ	16d/JJ	16d/JJ	.	.	16f#/
8FF#/	8FF#/	8FF#/	8FF#/	8e/J	8e/J	8e/J	8a#/J	8a#/J	16g#/
.	.	.	.	.	.	.	.	.	16a#/JJ
8BB\L	8BB\L	8BB\L	8BB\L	2.d\	2.d\	[4.d\	4.b\	4.b/	16b/LL
.	.	.	.	.	.	.	.	.	16g/
8D\	8D\	8D\	8D\	.	.	.	.	.	16f#/
.	.	.	.	.	.	.	.	.	16e/
8F#\J	8F#\J	8F#\J	8F#\J	.	.	.	.	.	16d/
.	.	.	.	.	.	.	.	.	16c#/JJ
8B\L	8B\L	8B\L	8B\L	.	.	16d\LL]	4.B/	4.B/	16B/LL
.	.	.	.	.	.	16c#\	.	.	16c#/
16A\LL	16A\LL	16A\LL	16A\LL	.	.	16B\	.	.	16d/
16G\	16G\	16G\	16G\	.	.	16c#\	.	.	16e/
16F#\	16F#\	16F#\	16F#\	.	.	16d\	.	.	16f#/
16E\JJ	16E\JJ	16E\JJ	16E\JJ	.	.	16e\JJ	.	.	16g/JJ
=29	=29	=29	=29	=29	=29	=29	=29	=29	=29
8D#\L	8D#\L	8D#\L	8D#\L	8B/L	8f#\L	16f#\LL	8a/L	8a/L	8a/L
.	.	.	.	.	.	16g\	.	.	.
8F#\	8F#\	8F#\	8F#\	8B/	8f#\	16a\	8a/	8a/	8a/
.	.	.	.	.	.	16g\	.	.	.
8B\J	8B\J	8B\J	8B\J	8B/J	8f#\J	16f#\	8a/J	8a/J	8a/J
.	.	.	.	.	.	16e\JJ	.	.	.
8BB\L	8BB\L	8BB\L	8BB\L	8d#\L	8f#\L	16d#\LL	8a/L	8a/L	8a/L
.	.	.	.	.	.	16e\	.	.	.
8F#\	8F#\	8F#\	8F#\	8d#\	8f#\	16f#\	8a/	8a/	8a/
.	.	.	.	.	.	16e\	.	.	.
8B\J	8B\J	8B\J	8B\J	8d#\J	8f#\J	16d#\	8a/J	8a/J	8a/J
.	.	.	.	.	.	16c#\JJ	.	.	.
8E\L	8E\L	8E\L	8E\L	8d#/L	8f#\L	16B\LL	16a/LL	16a/LL	16a/LL
.	.	.	.	.	.	16d#\	16cc/	16cc/	16cc/
8G\	8G\	8G\	8G\	8B/	8e\	16e\	16b/	16b/	16b/
.	.	.	.	.	.	16f#\	16a/	16a/	16a/
8B\J	8B\J	8B\J	8B\J	8B/J	8d#\J	16g\	16g/	16g/	16g/
.	.	.	.	.	.	16a\JJ	16f#/JJ	16f#/JJ	16f#/JJ
8e\L	8e\L	8e\L	8e\L	4B/	4e\	16b\LL	8g/L	8g/L	16g/LL
.	.	.	.	.	.	16a\	.	.	16f#/
16d\LL	16d\LL	16d\LL	16d\LL	.	.	16g\	8e/	8e/	16e/
16c\	16c\	16c\	16c\	.	.	16a\	.	.	16f#/
16B\	16B\	16B\	16B\	8r	8r	16b\	8g/J	8g/J	16g/
16A\JJ	16A\JJ	16A\JJ	16A\JJ	.	.	16cc\JJ	.	.	16a/JJ
=30	=30	=30	=30	=30	=30	=30	=30	=30	=30
8G#\L	8G#\L	8G#\L	8G#\L	8dd\L	8dd\L	8dd\L	8e/L	8b\L	16b\LL
.	.	.	.	.	.	.	.	.	16cc\
8B\	8B\	8B\	8B\	8dd\	8dd\	8dd\	8e/	8b\	16dd\
.	.	.	.	.	.	.	.	.	16cc\
8e\J	8e\J	8e\J	8e\J	8dd\J	8dd\J	8dd\J	8e/J	8b\J	16b\
.	.	.	.	.	.	.	.	.	16a\JJ
8E\L	8E\L	8E\L	8E\L	8dd\L	8dd\L	8dd\L	8g#/L	8b\L	16g#/LL
.	.	.	.	.	.	.	.	.	16a/
8B\	8B\	8B\	8B\	8dd\	8dd\	8dd\	8g#/	8b\	16b/
.	.	.	.	.	.	.	.	.	16a/
8e\J	8e\J	8e\J	8e\J	8dd\J	8dd\J	8dd\J	8g#/J	8b\J	16g#/
.	.	.	.	.	.	.	.	.	16f#/JJ
8AA/L	8AA/L	8AA/L	8AA/L	8dd\L	8dd\L	8dd\L	8g#/L	8b/L	16e/LL
.	.	.	.	.	.	.	.	.	16g#/
8C/	8C/	8C/	8C/	16ee\LL	16ee\LL	16ee\LL	8e/	8a/	16a/
.	.	.	.	16dd\	16dd\	16dd\	.	.	16b/
8E/J	8E/J	8E/J	8E/J	16cc\	16cc\	16cc\	8e/J	8g#/J	16cc/
.	.	.	.	16b\JJ	16b\JJ	16b\JJ	.	.	16dd/JJ
16A\LL	16A\LL	16A\LL	16A\LL	8cc\L	8cc\L	8cc\L	4e/	4a/	16ee\LL
16B\	16B\	16B\	16B\	.	.	.	.	.	16dd\
16A\	16A\	16A\	16A\	8a\J	8a\J	8a\J	.	.	16cc\
16G\	16G\	16G\	16G\	.	.	.	.	.	16b\
16F\	16F\	16F\	16F\	8r	8r	8r	8r	8r	16cc\
16E\JJ	16E\JJ	16E\JJ	16E\JJ	.	.	.	.	.	16a\JJ
=31	=31	=31	=31	=31	=31	=31	=31	=31	=31
8D\L	8D\L	8D\L	8D\L	16r	16r	16r	8ff\L	8ff\L	8ff\L
.	.	.	.	16d\LL	16d\LL	16d\LL	.	.	.
8A\	8A\	8A\	8A\	16f\	16f\	16f\	8ff\	8ff\	8ff\
.	.	.	.	16a\	16a\	16a\	.	.	.
8d\J	8d\J	8d\J	8d\J	16f\	16f\	16f\	8ff\J	8ff\J	8ff\J
.	.	.	.	16d\JJ	16d\JJ	16d\JJ	.	.	.
8G/L	8G/L	8G/L	8G/L	8b\L	8b\L	8b\L	16ff\LL	16ff\LL	16ff\LL
.	.	.	.	.	.	.	16g\	16g\	16g\
8D/	8D/	8D/	8D/	8b\	8b\	8b\	16b\	16b\	16b\
.	.	.	.	.	.	.	16dd\	16dd\	16dd\
8GG/J	8GG/J	8GG/J	8GG/J	8b\J	8b\J	8b\J	16b\	16b\	16b\
.	.	.	.	.	.	.	16g\JJ	16g\JJ	16g\JJ
8C\L	8C\L	8C\L	8C\L	16b\LL	16b\LL	16b\LL	8ee\L	8ee\L	8ee\L
.	.	.	.	16c\	16c\	16c\	.	.	.
8G\	8G\	8G\	8G\	16e\	16e\	16e\	8ee\	8ee\	8ee\
.	.	.	.	16g\	16g\	16g\	.	.	.
8c\J	8c\J	8c\J	8c\J	16e\	16e\	16e\	8ee\J	8ee\J	8ee\J
.	.	.	.	16c\JJ	16c\JJ	16c\JJ	.	.	.
8F/L	8F/L	8F/L	8F/L	8a\L	8a\L	8a\L	16ee/LL	16ee\LL	16ee\LL
.	.	.	.	.	.	.	16f/	16f\	16f\
8C/	8C/	8C/	8C/	8a\	8a\	8a\	16a/	16a\	16a\
.	.	.	.	.	.	.	16cc/	16cc\	16cc\
8FF/J	8FF/J	8FF/J	8FF/J	8a\J	8a\J	8a\J	16a/	16a\	16a\
.	.	.	.	.	.	.	16f/JJ	16f\JJ	16f\JJ
=32	=32	=32	=32	=32	=32	=32	=32	=32	=32
4F\	4F\	4F\	4F\	8G/L	8B\L	16B/LL	8gg\L	8gg\L	8gg\L
.	.	.	.	.	.	16d/	.	.	.
.	.	.	.	8B/	8d\	16G/	8gg\	8gg\	8gg\
.	.	.	.	.	.	16d/	.	.	.
8r	8r	8r	8r	8d/J	8g\J	16B/	8gg\J	8gg\J	8gg\J
.	.	.	.	.	.	16d/JJ	.	.	.
4E\	4E\	4E\	4E\	8G/L	8c\L	16c/LL	8gg\L	8gg\L	8gg\L
.	.	.	.	.	.	16e/	.	.	.
.	.	.	.	8c/	8e\	16G/	8gg\	8gg\	8gg\
.	.	.	.	.	.	16e/	.	.	.
8r	8r	8r	8r	8e/J	8g\J	16c/	8gg\J	8gg\J	8gg\J
.	.	.	.	.	.	16e/JJ	.	.	.
4D\	4D\	4D\	4D\	8G\L	16B/LL	16d\LL	8gg\L	8gg\L	8gg\L
.	.	.	.	.	16d/	16f\	.	.	.
.	.	.	.	8d\	16G/	16G\	8gg\	8gg\	8gg\
.	.	.	.	.	16d/	16f\	.	.	.
8r	8r	8r	8r	8f\J	16B/	16d\	8gg\J	8gg\J	8gg\J
.	.	.	.	.	16d/JJ	16f\JJ	.	.	.
4C/	4C/	4C/	4C/	8G\L	16c/LL	16e\LL	8gg\L	8gg\L	8gg\L
.	.	.	.	.	16e/	16g\	.	.	.
.	.	.	.	8e\	16G/	16G\	8gg\	8gg\	8gg\
.	.	.	.	.	16e/	16g\	.	.	.
8r	8r	8r	8r	8g\J	16c/	16e\	8gg\J	8gg\J	8gg\J
.	.	.	.	.	16e/JJ	16g\JJ	.	.	.
=33	=33	=33	=33	=33	=33	=33	=33	=33	=33
8BB\L	8BB\L	8BB\L	8BB\L	16B/LL	16d\LL	16f\LL	8gg\L	8gg\L	8gg\L
.	.	.	.	16d/	16f\	16B\	.	.	.
8D\	8D\	8D\	8D\	16G/	16G\	16f\	8gg\	8gg\	8gg\
.	.	.	.	16d/	16f\	16B\	.	.	.
8G\J	8G\J	8G\J	8G\J	16B/	16d\	16f\	8gg\J	8gg\J	8gg\J
.	.	.	.	16d/JJ	16f\JJ	16B\JJ	.	.	.
8C\L	8C\L	8C\L	8C\L	16c/LL	16e\LL	16e\LL	8gg\L	8gg\L	8gg\L
.	.	.	.	16e/	16g\	16c\	.	.	.
8E\	8E\	8E\	8E\	16G/	16G\	16e\	8gg\	8gg\	8gg\
.	.	.	.	16e/	16g\	16c\	.	.	.
8G\J	8G\J	8G\J	8G\J	16c/	16e\	16e\	8gg\J	8gg\J	8gg\J
.	.	.	.	16e/JJ	16g\JJ	16c\JJ	.	.	.
16BB/LL	16BB/LL	16BB/LL	16BB/LL	16d\LL	16f\LL	16d/LL	8gg\L	8gg\L	8gg\L
16D/	16D/	16D/	16D/	16f\	16B\	16G/	.	.	.
16GG/	16GG/	16GG/	16GG/	16G\	16f\	16d/	8gg\	8gg\	8gg\
16D/	16D/	16D/	16D/	16f\	16B\	16G/	.	.	.
16BB/	16BB/	16BB/	16BB/	16d\	16f\	16d/	8gg\J	8gg\J	8gg\J
16D/JJ	16D/JJ	16D/JJ	16D/JJ	16f\JJ	16B\JJ	16G/JJ	.	.	.
16C/LL	16C/LL	16C/LL	16C/LL	16e\LL	16e\LL	16c/LL	8gg\L	8gg\L	8gg\L
16E/	16E/	16E/	16E/	16g\	16c\	16G/	.	.	.
16GG/	16GG/	16GG/	16GG/	16G\	16e\	16c/	8gg\	8gg\	8gg\
16E/	16E/	16E/	16E/	16g\	16c\	16G/	.	.	.
16C/	16C/	16C/	16C/	16e\	16e\	16c/	8gg\J	8gg\J	8gg\J
16E/JJ	16E/JJ	16E/JJ	16E/JJ	16g\JJ	16c\JJ	16G/JJ	.	.	.
=34	=34	=34	=34	=34	=34	=34	=34	=34	=34
8FF#/L	8FF#/L	8FF#/L	8FF#/L	8F#/L	8A\L	8c\L	16e-/LL	16a/LL	16cc\LL
.	.	.	.	.	.	.	16a/	16cc/	16ee-\
8FF#/	8FF#/	8FF#/	8FF#/	8A/	8c\	8e-\	16c/	16e-/	16a\
.	.	.	.	.	.	.	16a/	16cc/	16ee-\
8FF#/J	8FF#/J	8FF#/J	8FF#/J	8c/J	8e-\J	8a\J	(16e-/	(16a/	(16cc\
.	.	.	.	.	.	.	16d/JJ	16g/JJ	16b\JJ
8FF#/L	8FF#/L	8FF#/L	8FF#/L	8A\L	8c\L	8e-\L	16e-/LL)	16a/LL)	16cc\LL)
.	.	.	.	.	.	.	16a/	16cc/	16ee-\
8FF#/	8FF#/	8FF#/	8FF#/	8c\	8e-\	8a\	16c/	16e-/	16a\
.	.	.	.	.	.	.	16a/	16cc/	16ee-\
8FF#/J	8FF#/J	8FF#/J	8FF#/J	8e-\J	8a\J	8cc\J	16e-/	16a/	16cc\
.	.	.	.	.	.	.	16a/JJ	16cc/JJ	16ee-\JJ
8FF/L	8FF/L	8FF/L	8FF/L	16d\LL	16g\LL	16b\LL	8B/L	8d/L	8g\L
.	.	.	.	16g\	16b\	16dd\	.	.	.
8FF/	8FF/	8FF/	8FF/	16B\	16d\	16g\	8d/	8g/	8b\
.	.	.	.	16g\	16b\	16dd\	.	.	.
8FF/J	8FF/J	8FF/J	8FF/J	(16d\	(16g\	(16b\	8g/J	8b/J	8dd\J
.	.	.	.	16c\JJ	16f#\JJ	16a\JJ	.	.	.
8FF/L	8FF/L	8FF/L	8FF/L	16d\LL)	16g\LL)	16b\LL)	8d/L	8g/L	8b\L
.	.	.	.	16g\	16b\	16dd\	.	.	.
8FF/	8FF/	8FF/	8FF/	16B\	16d\	16g\	8g/	8b/	8dd\
.	.	.	.	16g\	16b\	16dd\	.	.	.
8FF/J	8FF/J	8FF/J	8FF/J	16d\	16g\	16b\	8b/J	8dd/J	8gg\J
.	.	.	.	16f\JJ	16b\JJ	16dd\JJ	.	.	.
=35	=35	=35	=35	=35	=35	=35	=35	=35	=35
4EE/	4EE/	4EE/	4EE/	8g\L	8g\L	(16cc\LL	8c/L	8c/L	8c/L
.	.	.	.	.	.	16dd\	.	.	.
.	.	.	.	8cc\	8cc\	16ee\)	8c/	8c/	8c/
.	.	.	.	.	.	16cc\	.	.	.
8r	8r	8r	8r	8ee\J	8ee\J	16b\	8c/J	8c/J	8c/J
.	.	.	.	.	.	16cc\JJ	.	.	.
4FF/	4FF/	4FF/	4FF/	8a\L	8a\L	16a\LL	8c/L	8c/L	8c/L
.	.	.	.	.	.	16cc\	.	.	.
.	.	.	.	8cc\	8cc\	16ee\	8c/	8c/	8c/
.	.	.	.	.	.	16cc\	.	.	.
8r	8r	8r	8r	8ee\J	8ee\J	16b\	8c/J	8c/J	8c/J
.	.	.	.	.	.	16cc\JJ	.	.	.
4GG/	4GG/	4GG/	4GG/	8g\L	8g\L	(16g\LL	8c/L	8c/L	8c/L
.	.	.	.	.	.	32cc\LLL	.	.	.
.	.	.	.	.	.	32dd\JJJ	.	.	.
.	.	.	.	8cc\	8cc\	16ee\)	8c/	8c/	8c/
.	.	.	.	.	.	16cc\	.	.	.
8r	8r	8r	8r	8ee\J	8ee\J	16b\	8c/J	8c/J	8c/J
.	.	.	.	.	.	16cc\JJ	.	.	.
4AA/	4AA/	4AA/	4AA/	8f\L	8f\L	16f\LL	8c/L	8c/L	8c/L
.	.	.	.	.	.	16cc\	.	.	.
.	.	.	.	8cc\	8cc\	16ee\	8c/	8c/	8c/
.	.	.	.	.	.	16cc\	.	.	.
8r	8r	8r	8r	8ee\J	8ee\J	16b\	8c/J	8c/J	8c/J
.	.	.	.	.	.	16cc\JJ	.	.	.
=36	=36	=36	=36	=36	=36	=36	=36	=36	=36
4EE/	4EE/	4EE/	4EE/	8g\L	8g\L	(16g\LL	8c/L	8c/L	8c/L
.	.	.	.	.	.	32cc\LLL	.	.	.
.	.	.	.	.	.	32dd\JJJ	.	.	.
.	.	.	.	8cc\	8cc\	16ee\)	8c/	8c/	8c/
.	.	.	.	.	.	16cc\	.	.	.
8r	8r	8r	8r	8ee\J	8ee\J	16b\	8c/J	8c/J	8c/J
.	.	.	.	.	.	16cc\JJ	.	.	.
4FF/	4FF/	4FF/	4FF/	8a\L	8a\L	16a\LL	8c/L	8c/L	8c/L
.	.	.	.	.	.	16cc\	.	.	.
.	.	.	.	8cc\	8cc\	16ee\	8c/	8c/	8c/
.	.	.	.	.	.	16cc\	.	.	.
8r	8r	8r	8r	8ee\J	8ee\J	16b\	8c/J	8c/J	8c/J
.	.	.	.	.	.	16cc\JJ	.	.	.
8GG/L	8GG/L	8GG/L	8GG/L	8g\L	8g\L	(16g\LL	8e/L	8e/L	8e/L
.	.	.	.	.	.	32cc\LLL	.	.	.
.	.	.	.	.	.	32dd\JJJ	.	.	.
8FF/	8FF/	8FF/	8FF/	8cc\	8cc\	16ee\)	8g/	8g/	8g/
.	.	.	.	.	.	16cc\	.	.	.
8GG/J	8GG/J	8GG/J	8GG/J	8b\J	8b\J	16g\	8d/J	8d/J	8d/J
.	.	.	.	.	.	16b\JJ	.	.	.
4CC/	4CC/	4CC/	4CC/	8cc\	8cc\	16cc\LL	8e/L	8e/L	8e/L
.	.	.	.	.	.	16a\	.	.	.
.	.	.	.	8G/L	8G/L	16g\	8c/	8c/	8c/
.	.	.	.	.	.	16f\	.	.	.
8DD/	8DD/	8DD/	8DD/	8G/J	8G/J	16e\	8G/J	8G/J	8G/J
.	.	.	.	.	.	16d\JJ	.	.	.
=37	=37	=37	=37	=37	=37	=37	=37	=37	=37
8EE/L	8EE/L	8EE/L	8EE/L	8G/L	8G/L	16c\LL	8c/L	8c/L	8c/L
.	.	.	.	.	.	16B\	.	.	.
8DD/	8DD/	8DD/	8DD/	8G/	8G/	16c\	8e/	8e/	8e/
.	.	.	.	.	.	16d\	.	.	.
8CC/J	8CC/J	8CC/J	8CC/J	8G/J	8G/J	16e\	8g/J	8g/J	8g/J
.	.	.	.	.	.	16f\JJ	.	.	.
8GG/L	8GG/L	8GG/L	8GG/L	8G/L	8G/L	16g\LL	8B/L	8B/L	8B/L
.	.	.	.	.	.	16a\	.	.	.
8AA/	8AA/	8AA/	8AA/	8G/	8G/	16g\	8d/	8d/	8d/
.	.	.	.	.	.	16f\	.	.	.
8BB/J	8BB/J	8BB/J	8BB/J	8G/J	8G/J	16e\	8g/J	8g/J	8g/J
.	.	.	.	.	.	16d\JJ	.	.	.
4C/	4C/	4C/	4C/	8G/L	16c\LL	8e\L	8c/L	8c/L	8c/L
.	.	.	.	.	16B\	.	.	.	.
.	.	.	.	8G/	16c\	8g\	8e/	8e/	8e/
.	.	.	.	.	16d\	.	.	.	.
8r	8r	8r	8r	8G/J	16e\	8cc\J	8g/J	8g/J	8g/J
.	.	.	.	.	16f\JJ	.	.	.	.
4G\	4G\	4G\	4G\	8G/L	16g\LL	16b\LL	8G/L	8G/L	8G/L
.	.	.	.	.	16a\	16cc\	.	.	.
.	.	.	.	8G/	16g\	16b\	8d/	8d/	8d/
.	.	.	.	.	16f\	16a\	.	.	.
8r	8r	8r	8r	8G/J	16e\	16g\	8g/J	8g/J	8g/J
.	.	.	.	.	16d\JJ	16f\JJ	.	.	.
=38	=38	=38	=38	=38	=38	=38	=38	=38	=38
4C/	4C/	4C/	4C/	8G/L	8e\L	8e\L	16c/LL	16c/LL	16c/LL
.	.	.	.	.	.	.	16B/	16B/	16B/
.	.	.	.	8G/	8g\	8c\	16c/	16c/	16c/
.	.	.	.	.	.	.	16d/	16d/	16d/
8r	8r	8r	8r	8G/J	8cc\J	8g\J	16e/	16e/	16e/
.	.	.	.	.	.	.	16f/JJ	16f/JJ	16f/JJ
4GG/	4GG/	4GG/	4GG/	8G/L	16b\LL	8g\L	16g/LL	16g/LL	16g/LL
.	.	.	.	.	16cc\	.	16a/	16a/	16a/
.	.	.	.	8G/	16b\	8g\	16g/	16g/	16g/
.	.	.	.	.	16a\	.	16f/	16f/	16f/
8r	8r	8r	8r	8G/J	16g\	8g\J	16e/	16e/	16e/
.	.	.	.	.	16f\JJ	.	16d/JJ	16d/JJ	16d/JJ
16C\LL	16C\LL	16C\LL	16C\LL	8G\L	8e\L	8g\L	8c/L	8c/L	8c/L
16BB\	16BB\	16BB\	16BB\	.	.	.	.	.	.
16C\	16C\	16C\	16C\	8g\	8c\	8g\	8e/	8e/	8e/
16D\	16D\	16D\	16D\	.	.	.	.	.	.
16E\	16E\	16E\	16E\	8cc\J	8g\J	8g\J	8g/J	8g/J	8g/J
16F\JJ	16F\JJ	16F\JJ	16F\JJ	.	.	.	.	.	.
16G\LL	16G\LL	16G\LL	16G\LL	16b\LL	8g\L	8g\L	8dd\L	8dd\L	8dd\L
16A\	16A\	16A\	16A\	16cc\	.	.	.	.	.
16G\	16G\	16G\	16G\	16b\	8g\	8g\	8ff\	8ff\	8ff\
16F\	16F\	16F\	16F\	16a\	.	.	.	.	.
16E\	16E\	16E\	16E\	16g\	8g\J	8g\J	8g\J	8g\J	8g\J
16D\JJ	16D\JJ	16D\JJ	16D\JJ	16f\JJ	.	.	.	.	.
=39	=39	=39	=39	=39	=39	=39	=39	=39	=39
16C/LL	16C/LL	16C/LL	16C/LL	16g\LL	16e\LL	8g\L	8ee\L	8ee\L	8ee\L
16BB/	16BB/	16BB/	16BB/	16a\	16f\	.	.	.	.
16C/	16C/	16C/	16C/	16g\	16e\	8cc\	8ee\	8ee\	8ee\
16D/	16D/	16D/	16D/	16f\	16d\	.	.	.	.
16E/	16E/	16E/	16E/	16e\	16c\	8g\J	8ee\J	8ee\J	8ee\J
16C/JJ	16C/JJ	16C/JJ	16C/JJ	16d\JJ	16B\JJ	.	.	.	.
16F#\LL	16F#\LL	16F#\LL	16F#\LL	8c\L	16A/LL	16a\LL	8ee\L	8ee\L	8ee\L
16G\	16G\	16G\	16G\	.	16G/	16b\	.	.	.
16F#\	16F#\	16F#\	16F#\	8a\	16A/	16a\	8ee\	8ee\	8ee\
16E\	16E\	16E\	16E\	.	16B/	16g\	.	.	.
16D\	16D\	16D\	16D\	8c\J	16c/	16f#\	8ee\J	8ee\J	8ee\J
16C\JJ	16C\JJ	16C\JJ	16C\JJ	.	16A/JJ	16e\JJ	.	.	.
16BB/LL	16BB/LL	16BB/LL	16BB/LL	16d\LL	16d\LL	8f#\L	8dd\L	8dd\L	8dd\L
16AA/	16AA/	16AA/	16AA/	16g\	16e\	.	.	.	.
16BB/	16BB/	16BB/	16BB/	16f#\	16d\	8b\	8dd\	8dd\	8dd\
16C/	16C/	16C/	16C/	16e\	16c\	.	.	.	.
16D/	16D/	16D/	16D/	16d\	16B\	8f#\J	8dd\J	8dd\J	8dd\J
16BB/JJ	16BB/JJ	16BB/JJ	16BB/JJ	16c\JJ	16A\JJ	.	.	.	.
16E\LL	16E\LL	16E\LL	16E\LL	8B\L	16G/LL	16g\LL	8dd\L	8dd\L	8dd\L
16F#\	16F#\	16F#\	16F#\	.	16F#/	16a\	.	.	.
16E\	16E\	16E\	16E\	8e\	16G/	16g\	8dd\	8dd\	8dd\
16D\	16D\	16D\	16D\	.	16A/	16f#\	.	.	.
16C\	16C\	16C\	16C\	8B\J	16B/	16e\	8dd\J	8dd\J	8dd\J
16BB\JJ	16BB\JJ	16BB\JJ	16BB\JJ	.	16G/JJ	16d\JJ	.	.	.
=40	=40	=40	=40	=40	=40	=40	=40	=40	=40
16AA/LL	16AA/LL	16AA/LL	16AA/LL	16c\LL	16c/LL	8e\L	8cc\L	8cc\L	8cc\L
16GG/	16GG/	16GG/	16GG/	16f\	16d/	.	.	.	.
16AA/	16AA/	16AA/	16AA/	16e\	16c/	8a\	8cc\	8cc\	8cc\
16BB/	16BB/	16BB/	16BB/	16d\	16B/	.	.	.	.
16C/	16C/	16C/	16C/	16c\	16A/	8e\J	8cc\J	8cc\J	8cc\J
16AA/JJ	16AA/JJ	16AA/JJ	16AA/JJ	16B\JJ	16G/JJ	.	.	.	.
16D/LL	16D/LL	16D/LL	16D/LL	8A\L	16F#/LL	8f#\L	8cc\L	8cc\L	8cc\L
16E/	16E/	16E/	16E/	.	16E/	.	.	.	.
16D/	16D/	16D/	16D/	8d\	16F#/	8a\	8cc\	8cc\	8cc\
16C/	16C/	16C/	16C/	.	16G/	.	.	.	.
16BB/	16BB/	16BB/	16BB/	8f#\J	16A/	8dd\J	8cc\J	8cc\J	8cc\J
16AA/JJ	16AA/JJ	16AA/JJ	16AA/JJ	.	16F#/JJ	.	.	.	.
4GG/	4GG/	4GG/	4GG/	8g\L	8d\L	8g\L	8b/L	8b\L	16b\LL
.	.	.	.	.	.	.	.	.	16a\
.	.	.	.	8b\	8b\	8b\	8d/	8dd\	16g\
.	.	.	.	.	.	.	.	.	16a\
8r	8r	8r	8r	8dd\J	8dd\J	8dd\J	8d/J	8gg\J	16b\
.	.	.	.	.	.	.	.	.	16cc\JJ
4DD/	4DD/	4DD/	4DD/	8f#\L	8f#\L	8f#\L	8d/L	8a\L	16dd\LL
.	.	.	.	.	.	.	.	.	16ee\
.	.	.	.	8a\	8a\	8a\	8d/	8cc\	16dd\
.	.	.	.	.	.	.	.	.	16cc\
8r	8r	8r	8r	8dd\J	8dd\J	8dd\J	8d/J	8ff#\J	16b\
.	.	.	.	.	.	.	.	.	16a\JJ
=41	=41	=41	=41	=41	=41	=41	=41	=41	=41
4GG/	4GG/	4GG/	4GG/	8g\L	8g\L	8g\L	8d/L	16g/LL	8b\L
.	.	.	.	.	.	.	.	16f#/	.
.	.	.	.	8b\	8b\	8b\	8d/	16g/	8dd\
.	.	.	.	.	.	.	.	16a/	.
8r	8r	8r	8r	8dd\J	8dd\J	8dd\J	8d/J	16b/	8gg\J
.	.	.	.	.	.	.	.	16cc/JJ	.
4D\	4D\	4D\	4D\	8d\L	8d\L	8d\L	8d/L	16dd\LL	16ff#\LL
.	.	.	.	.	.	.	.	16ee\	16gg\
.	.	.	.	8a\	8a\	8a\	8d/	16dd\	16ff#\
.	.	.	.	.	.	.	.	16cc\	16ee\
8r	8r	8r	8r	8dd\J	8dd\J	8dd\J	8d/J	16b\	16dd\
.	.	.	.	.	.	.	.	16a\JJ	16cc\JJ
8G\L	8G\L	8G\L	8G\L	16G/LL	16G/LL	16G/LL	8d/L	8b\L	8b\L
.	.	.	.	16F#/	16F#/	16F#/	.	.	.
8B\	8B\	8B\	8B\	16G/	16G/	16G/	8d/	8dd\	8g\
.	.	.	.	16A/	16A/	16A/	.	.	.
8d\J	8d\J	8d\J	8d\J	16B/	16B/	16B/	8d/J	8gg\J	8dd\J
.	.	.	.	16c/JJ	16c/JJ	16c/JJ	.	.	.
8D\L	8D\L	8D\L	8D\L	16d\LL	16d/LL	16d/LL	8d/L	16ff#\LL	8dd\L
.	.	.	.	16e\	16e/	16e/	.	16gg\	.
8A\	8A\	8A\	8A\	16d\	16d/	16d/	8d/	16ff#\	8dd\
.	.	.	.	16c\	16c/	16c/	.	16ee\	.
8d\J	8d\J	8d\J	8d\J	16B\	16B/	16B/	8d/J	16dd\	8dd\J
.	.	.	.	16A\JJ	16A/JJ	16A/JJ	.	16cc\JJ	.
=42	=42	=42	=42	=42	=42	=42	=42	=42	=42
16GG/LL	16GG/LL	16GG/LL	16GG/LL	8G/L	8G/L	8G/L	8d\L	8b\L	8dd\L
16FF#/	16FF#/	16FF#/	16FF#/	.	.	.	.	.	.
16GG/	16GG/	16GG/	16GG/	8B/	8B/	8B/	8dd\	8g\	8dd\
16AA/	16AA/	16AA/	16AA/	.	.	.	.	.	.
16BB/	16BB/	16BB/	16BB/	8d/J	8d/J	8d/J	8gg\J	8dd\J	8dd\J
16C/JJ	16C/JJ	16C/JJ	16C/JJ	.	.	.	.	.	.
16D/LL	16D/LL	16D/LL	16D/LL	8a\L	8a\L	8a\L	16ff#\LL	8dd\L	8dd\L
16E/	16E/	16E/	16E/	.	.	.	16gg\	.	.
16D/	16D/	16D/	16D/	8cc\	8cc\	8cc\	16ff#\	8dd\	8dd\
16C/	16C/	16C/	16C/	.	.	.	16ee\	.	.
16BB/	16BB/	16BB/	16BB/	8d\J	8d\J	8d\J	16dd\	8dd\J	8dd\J
16AA/JJ	16AA/JJ	16AA/JJ	16AA/JJ	.	.	.	16cc\JJ	.	.
16GG/LL	16GG/LL	16GG/LL	16GG/LL	8b\L	8b\L	8b\L	16b\LL	8dd\L	16bb\LL
16FF#/	16FF#/	16FF#/	16FF#/	.	.	.	16ee\	.	16ccc\
16GG/	16GG/	16GG/	16GG/	8b\	8b\	8b\	16dd\	8gg\	16bb\
16AA/	16AA/	16AA/	16AA/	.	.	.	16cc\	.	16aa\
16BB/	16BB/	16BB/	16BB/	8b\J	8b\J	8b\J	16b\	8dd\J	16gg\
16GG/JJ	16GG/JJ	16GG/JJ	16GG/JJ	.	.	.	16a\JJ	.	16ff#\JJ
16C/LL	16C/LL	16C/LL	16C/LL	8b\L	8b\L	8b\L	8g/L	16ee\LL	16ee\LL
16D/	16D/	16D/	16D/	.	.	.	.	16ff#\	16dd\
16C/	16C/	16C/	16C/	8b\	8b\	8b\	8cc/	16ee\	16ee\
16BB/	16BB/	16BB/	16BB/	.	.	.	.	16dd\	16ff#\
16AA/	16AA/	16AA/	16AA/	8b\J	8b\J	8b\J	8g/J	16cc\	16gg\
16GG/JJ	16GG/JJ	16GG/JJ	16GG/JJ	.	.	.	.	16b\JJ	16ee\JJ
=43	=43	=43	=43	=43	=43	=43	=43	=43	=43
16FF#/LL	16FF#/LL	16FF#/LL	16FF#/LL	8a\L	8a\L	8a\L	16a/LL	8a\L	16aa\LL
16EE/	16EE/	16EE/	16EE/	.	.	.	16dd/	.	16bb\
16FF#/	16FF#/	16FF#/	16FF#/	8a\	8a\	8a\	16cc/	8ff#\	16aa\
16GG/	16GG/	16GG/	16GG/	.	.	.	16b/	.	16gg\
16AA/	16AA/	16AA/	16AA/	8a\J	8a\J	8a\J	16a/	8a\J	16ff#\
16FF#/JJ	16FF#/JJ	16FF#/JJ	16FF#/JJ	.	.	.	16g/JJ	.	16ee\JJ
16BB/LL	16BB/LL	16BB/LL	16BB/LL	8a\L	8a\L	8a\L	8f#/L	16dd\LL	16dd\LL
16C/	16C/	16C/	16C/	.	.	.	.	16ee\	16cc\
16BB/	16BB/	16BB/	16BB/	8a\	8a\	8a\	8b/	16dd\	16dd\
16AA/	16AA/	16AA/	16AA/	.	.	.	.	16cc\	16ee\
16GG/	16GG/	16GG/	16GG/	8a\J	8a\J	8a\J	8f#/J	16b\	16ff#\
16FF#/JJ	16FF#/JJ	16FF#/JJ	16FF#/JJ	.	.	.	.	16a\JJ	16dd\JJ
16EE/LL	16EE/LL	16EE/LL	16EE/LL	8g\L	8g\L	8g\L	16g/LL	8b\L	16gg\LL
16DD/	16DD/	16DD/	16DD/	.	.	.	16cc/	.	16aa\
16EE/	16EE/	16EE/	16EE/	8g\	8g\	8g\	16b/	8ee\	16gg\
16FF#/	16FF#/	16FF#/	16FF#/	.	.	.	16a/	.	16ff#\
16GG/	16GG/	16GG/	16GG/	8g\J	8g\J	8g\J	16g/	8b\J	16ee\
16EE/JJ	16EE/JJ	16EE/JJ	16EE/JJ	.	.	.	16f#/JJ	.	16dd\JJ
16AA/LL	16AA/LL	16AA/LL	16AA/LL	8g\L	8g\L	8g\L	8e/L	16cc\LL	16cc\LL
16BB/	16BB/	16BB/	16BB/	.	.	.	.	16dd\	16b\
16AA/	16AA/	16AA/	16AA/	8g\	8g\	8g\	8a/	16cc\	16cc\
16GG/	16GG/	16GG/	16GG/	.	.	.	.	16b\	16dd\
16FF#/	16FF#/	16FF#/	16FF#/	8g\J	8g\J	8g\J	8e/J	16a\	16ee\
16EE/JJ	16EE/JJ	16EE/JJ	16EE/JJ	.	.	.	.	16g\JJ	16b\JJ
=44	=44	=44	=44	=44	=44	=44	=44	=44	=44
8DD/L	8DD/L	8DD/L	8DD/L	4f#\	8f#\L	16f#\LL	8f#/L	8a/L	8cc/L
.	.	.	.	.	.	16a\	.	.	.
8DD/	8DD/	8DD/	8DD/	.	8a\	16d\	8dd/	8f#/	8a/
.	.	.	.	.	.	16a\	.	.	.
8DD/J	8DD/J	8DD/J	8DD/J	8a\	8dd\J	16f#\	8a/J	8d/J	8f#/J
.	.	.	.	.	.	16a\JJ	.	.	.
8DD/L	8DD/L	8DD/L	8DD/L	4g\	8g\L	16g\LL	8g/L	8b/L	8dd/L
.	.	.	.	.	.	16b\	.	.	.
8DD/	8DD/	8DD/	8DD/	.	8b\	16d\	8dd/	8g/	8b/
.	.	.	.	.	.	16b\	.	.	.
8DD/J	8DD/J	8DD/J	8DD/J	8b\	8dd\J	16g\	8b/J	8d/J	8g/J
.	.	.	.	.	.	16b\JJ	.	.	.
8DD/L	8DD/L	8DD/L	8DD/L	4a\	16f#\LL	16a\LL	8f#/L	8a/L	8cc/L
.	.	.	.	.	16a\	16cc\	.	.	.
8DD/	8DD/	8DD/	8DD/	.	16d\	16d\	8dd/	8f#/	8a/
.	.	.	.	.	16a\	16cc\	.	.	.
8DD/J	8DD/J	8DD/J	8DD/J	8cc\	16f#\	16a\	8a/J	8d/J	8f#/J
.	.	.	.	.	16a\JJ	16cc\JJ	.	.	.
8DD/L	8DD/L	8DD/L	8DD/L	4b\	16g\LL	16b\LL	8d/L	8g/L	8b/L
.	.	.	.	.	16b\	16dd\	.	.	.
8DD/	8DD/	8DD/	8DD/	.	16d\	16d\	8b/	8d/	8g/
.	.	.	.	.	16b\	16dd\	.	.	.
8DD/J	8DD/J	8DD/J	8DD/J	8dd\	16g\	16b\	8g/J	8B/J	8d/J
.	.	.	.	.	16b\JJ	16dd\JJ	.	.	.
=45	=45	=45	=45	=45	=45	=45	=45	=45	=45
8DD/L	8DD/L	8DD/L	8DD/L	16f#\LL	16a\LL	16cc\LL	8dd/L	4f#/	8a/L
.	.	.	.	16a\	16cc\	16f#\	.	.	.
8DD/	8DD/	8DD/	8DD/	16d\	16d\	16cc\	8a/	.	8f#/
.	.	.	.	16a\	16cc\	16f#\	.	.	.
8DD/J	8DD/J	8DD/J	8DD/J	16f#\	16a\	16cc\	8f#/J	8dd\	8d/J
.	.	.	.	16a\JJ	16cc\JJ	16f#\JJ	.	.	.
8DD/L	8DD/L	8DD/L	8DD/L	16g\LL	16b\LL	16b\LL	8dd/L	4g/	8b/L
.	.	.	.	16b\	16dd\	16g\	.	.	.
8DD/	8DD/	8DD/	8DD/	16d\	16d\	16b\	8b/	.	8g/
.	.	.	.	16b\	16dd\	16g\	.	.	.
8DD/J	8DD/J	8DD/J	8DD/J	16g\	16b\	16b\	8g/J	8dd\	8d/J
.	.	.	.	16b\JJ	16dd\JJ	16g\JJ	.	.	.
8DD/L	8DD/L	8DD/L	8DD/L	16a\LL	16cc\LL	16a\LL	16dd\LL	16dd\LL	16ff#\LL
.	.	.	.	16cc\	16f#\	16d\	16a\	16ff#\	16aa\
8DD/	8DD/	8DD/	8DD/	16d\	16cc\	16a\	16dd\	16a\	16dd\
.	.	.	.	16cc\	16f#\	16d\	16a\	16ff#\	16aa\
8DD/J	8DD/J	8DD/J	8DD/J	16a\	16cc\	16a\	16dd\	16dd\	16ff#\
.	.	.	.	16cc\JJ	16f#\JJ	16d\JJ	16a\JJ	16ff#\JJ	16aa\JJ
8DD/L	8DD/L	8DD/L	8DD/L	16b\LL	16b\LL	16g\LL	16dd\LL	16dd\LL	16gg\LL
.	.	.	.	16dd\	16g\	16d\	16b\	16gg\	16bb\
8DD/	8DD/	8DD/	8DD/	16d\	16b\	16g\	16dd\	16b\	16dd\
.	.	.	.	16dd\	16g\	16d\	16b\	16gg\	16bb\
8DD/J	8DD/J	8DD/J	8DD/J	16b\	16b\	16g\	16dd\	16dd\	16gg\
.	.	.	.	16dd\JJ	16g\JJ	16d\JJ	16b\JJ	16gg\JJ	16bb\JJ
=46	=46	=46	=46	=46	=46	=46	=46	=46	=46
8DD/L	8DD/L	8DD/L	8DD/L	16d\LL	16f#\LL	16a\LL	8a/	8dd\	8ff#\
.	.	.	.	16f#\	16a\	16cc\	.	.	.
8FF#/	8FF#/	8FF#/	8FF#/	16a\	16d\	16d\	8d/L	8d/L	8d/L
.	.	.	.	16f#\	16a\	16cc\	.	.	.
8AA/J	8AA/J	8AA/J	8AA/J	16d\	16f#\	16a\	8d/J	8d/J	8d/J
.	.	.	.	16A\JJ	16a\JJ	16cc\JJ	.	.	.
8FF#/L	8FF#/L	8FF#/L	8FF#/L	16d\LL	16f#\LL	16a\LL	8d/L	8d/L	8d/L
.	.	.	.	16A\	16a\	16cc\	.	.	.
8AA/	8AA/	8AA/	8AA/	16d\	16d\	16d\	8d/	8d/	8d/
.	.	.	.	16f#\	16a\	16cc\	.	.	.
8D/J	8D/J	8D/J	8D/J	16a\	16f#\	16a\	8d/J	8d/J	8d/J
.	.	.	.	16f#\JJ	16a\JJ	16cc\JJ	.	.	.
8GG/L	8GG/L	8GG/L	8GG/L	8d\	8g\	8b\	16g/LL	16b\LL	16dd\LL
.	.	.	.	.	.	.	16b/	16dd\	16ff\
8BB/	8BB/	8BB/	8BB/	8G/L	8G/L	8G/L	16dd/	16g\	16g\
.	.	.	.	.	.	.	16b/	16dd\	16ff\
8D/J	8D/J	8D/J	8D/J	8G/J	8G/J	8G/J	16g/	16b\	16dd\
.	.	.	.	.	.	.	16d/JJ	16dd\JJ	16ff\JJ
8BB/L	8BB/L	8BB/L	8BB/L	8G/L	8G/L	8G/L	16g/LL	16b\LL	16dd\LL
.	.	.	.	.	.	.	16d/	16dd\	16ff\
8D/	8D/	8D/	8D/	8G/	8G/	8G/	16g/	16g\	16g\
.	.	.	.	.	.	.	16b/	16dd\	16ff\
8G/J	8G/J	8G/J	8G/J	8G/J	8G/J	8G/J	16dd/	16b\	16dd\
.	.	.	.	.	.	.	16b/JJ	16dd\JJ	16ff\JJ
=47	=47	=47	=47	=47	=47	=47	=47	=47	=47
4CC/	4CC/	4CC/	4CC/	8G/L	8G/L	8G/L	8G/L	8c/L	16ee\LL
.	.	.	.	.	.	.	.	.	16ff\
.	.	.	.	8G/	8G/	8G/	8c/	8e/	16gg\
.	.	.	.	.	.	.	.	.	16ff\
8r	8r	8r	8r	8G/J	8G/J	8G/J	8e/J	8g/J	16ee\
.	.	.	.	.	.	.	.	.	16dd\JJ
4.r	4.r	4.r	4.r	8G/L	8G/L	8G/L	8G/L	8e/L	16cc\LL
.	.	.	.	.	.	.	.	.	16dd\
.	.	.	.	8G/	8G/	8G/	8c/	8g/	16ee\
.	.	.	.	.	.	.	.	.	16dd\
.	.	.	.	8G/J	8G/J	8G/J	8e/J	8cc/J	16cc\
.	.	.	.	.	.	.	.	.	16b\JJ
4C/	4C/	4C/	4C/	8d\L	8d\L	8d\L	8d/L	8f#/L	16a/LL
.	.	.	.	.	.	.	.	.	16b/
.	.	.	.	8d\	8d\	8d\	8f#/	8a/	16cc/
.	.	.	.	.	.	.	.	.	16b/
8r	8r	8r	8r	8d\J	8d\J	8d\J	8a/J	8dd/J	16a/
.	.	.	.	.	.	.	.	.	16g/JJ
4.r	4.r	4.r	4.r	8d\L	8d\L	8d\L	8d/L	8a\L	16f#/LL
.	.	.	.	.	.	.	.	.	16g/
.	.	.	.	8d\	8d\	8d\	8f#/	8dd\	16a/
.	.	.	.	.	.	.	.	.	16g/
.	.	.	.	8d\J	8d\J	8d\J	8a/J	8ff#\J	16f#/
.	.	.	.	.	.	.	.	.	16e/JJ
=48	=48	=48	=48	=48	=48	=48	=48	=48	=48
8BB/L	8BB/L	8BB/L	8BB/L	8d\L	8d\L	8d\L	8dd\L	8gg\L	16d/LL
.	.	.	.	.	.	.	.	.	16e/
8AA/	8AA/	8AA/	8AA/	16B\LL	16B\LL	16B\LL	16g\LL	16g\LL	16d/
.	.	.	.	16c\JJ	16c\JJ	16c\JJ	16a\JJ	16a\JJ	16c/
8GG/J	8GG/J	8GG/J	8GG/J	8d\J	8d\J	8d\J	8b\J	8b\J	16B/
.	.	.	.	.	.	.	.	.	16c/JJ
4D/	4D/	4D/	4D/	8D/L	8D/L	8D/L	8d/L	8d/L	16A/LL
.	.	.	.	.	.	.	.	.	16B/
.	.	.	.	8A/	8A/	8A/	8g/	8g/	16c/
.	.	.	.	.	.	.	.	.	16d/
8DD/	8DD/	8DD/	8DD/	8c/J	8c/J	8c/J	8f#/J	8f#/J	16e/
.	.	.	.	.	.	.	.	.	16f#/JJ
2.GG/	2.GG/	2.GG/	2.GG/	2.B/	2.B/	2.B/	8g\L	8g\L	16g/LL
.	.	.	.	.	.	.	.	.	16b/
.	.	.	.	.	.	.	8b\	8b\	16dd/
.	.	.	.	.	.	.	.	.	16g/
.	.	.	.	.	.	.	8dd\J	8dd\J	16b/
.	.	.	.	.	.	.	.	.	16dd/JJ
.	.	.	.	.	.	.	4.gg\	4.gg\	16gg/LL
.	.	.	.	.	.	.	.	.	16dd/
.	.	.	.	.	.	.	.	.	16b/
.	.	.	.	.	.	.	.	.	16g/JJ
.	.	.	.	.	.	.	.	.	8G/J
==	==	==	==	==	==	==	==	==	==
*-	*-	*-	*-	*-	*-	*-	*-	*-	*-
!!!CDT: 1685/3//-1750/7/28
!!!OCY: Deutschland
!!!ODE: His Royal Highness Christian Ludwig, Margrave of Brandenburg.
!!!ODT: 1711//-1713//
!!!OPC: ?Weimar
!!!PPR: Peters
!!!PDT: 1850
!!!PPP: Leipzig
!!!AGN: concerto grosso
!!!AST: baroque, orchestral
!!!AMT: compound quadruple
!!!SCA: Bach-Werke-Verzeichnis
!!!YOR: Bach Gesellschaft, xix,59
!!!YOY: 1871; although imprint says 1869
!!!AIN: cbass; cemba; cello; viola; violn
!!!EEV: 1.0
!!!RDT: 1994 March 6
!!!YER: 1994 October 22
!!!YEN: United States of America
!!!EFL: 2/2
!!!EED: W.B. Hewlett
!!!VTS: 1167051371
